assets/luts/moody_earth_01.cube
# Generated by scripts/generateLuts.mjs — moody_earth_01
TITLE "moody_earth_01"
LUT_3D_SIZE 9
0.022862 0.022862 0.027878
0.114518 0.027600 0.029640
0.215471 0.032347 0.031542
0.323047 0.037101 0.033586
0.434595 0.041862 0.035773
0.547491 0.046629 0.038104
0.659130 0.051400 0.040581
0.766931 0.056174 0.043205
0.868338 0.060952 0.045977
0.044700 0.124971 0.034365
0.138475 0.130247 0.036605
0.240809 0.135518 0.038989
0.349071 0.140783 0.041519
0.460654 0.146042 0.044197
0.572972 0.151294 0.047024
0.683462 0.156538 0.050002
0.789584 0.161772 0.053133
0.888822 0.166997 0.056417
0.065733 0.237942 0.042477
0.161285 0.243559 0.045209
0.264717 0.249159 0.048091
0.373438 0.254742 0.051124
0.484881 0.260307 0.054310
0.596502 0.265854 0.057652
0.705778 0.271381 0.061150
0.810210 0.276889 0.064806
0.907321 0.282377 0.068623
0.085799 0.358121 0.052266
0.182822 0.363894 0.055509
0.287100 0.369640 0.058907
0.396083 0.375359 0.062462
0.507243 0.381051 0.066177
0.618077 0.386714 0.070053
0.726103 0.392349 0.074091
0.828860 0.397955 0.078294
0.923911 0.403532 0.082665
0.104758 0.481925 0.063796
0.202978 0.487680 0.067569
0.307881 0.493401 0.071504
0.416957 0.499086 0.075602
0.527720 0.504736 0.079866
0.637704 0.510349 0.084297
0.744466 0.515927 0.088898
0.845586 0.521468 0.093671
0.938665 0.526972 0.098617
0.122489 0.605837 0.077135
0.221660 0.611413 0.081460
0.326995 0.616948 0.085953
0.436024 0.622441 0.090616
0.546298 0.627892 0.095452
0.655392 0.633300 0.100462
0.760902 0.638667 0.105648
0.860444 0.643991 0.111013
0.951659 0.649273 0.116558
0.138890 0.726408 0.092356
0.238794 0.731655 0.097255
0.344393 0.736855 0.102329
0.453256 0.742009 0.107580
0.562974 0.747116 0.113011
0.671159 0.752176 0.118623
0.775445 0.757190 0.124417
0.873488 0.762156 0.130398
0.962964 0.767076 0.136565
0.153874 0.840255 0.109537
0.254315 0.845035 0.115033
0.360033 0.849764 0.120711
0.468634 0.854443 0.126573
0.577748 0.859073 0.132621
0.685024 0.863652 0.138858
0.788134 0.868181 0.145284
0.884770 0.872661 0.151902
0.972647 0.877092 0.158713
0.167366 0.944065 0.128753
0.268172 0.948249 0.134870
0.373883 0.952381 0.141175
0.482146 0.956462 0.147671
0.590625 0.960490 0.154359
0.697008 0.964468 0.161242
0.799003 0.968393 0.168321
0.894340 0.972268 0.175598
0.980770 0.976093 0.183074
0.025098 0.024470 0.112788
0.116985 0.029211 0.114801
0.218091 0.033961 0.116969
0.325747 0.038717 0.119293
0.437308 0.043480 0.121774
0.550152 0.048248 0.124413
0.661678 0.053021 0.127212
0.769311 0.057796 0.130170
0.870498 0.062574 0.133290
0.046862 0.126763 0.120178
0.140832 0.132037 0.122717
0.243289 0.137307 0.125414
0.351608 0.142570 0.128270
0.463184 0.147827 0.131287
0.575436 0.153076 0.134466
0.685806 0.158316 0.137809
0.791758 0.163548 0.141315
0.890778 0.168769 0.144988
0.067805 0.239851 0.129350
0.163519 0.245462 0.132426
0.267047 0.251057 0.135664
0.375803 0.256634 0.139066
0.487223 0.262193 0.142633
0.598768 0.267733 0.146366
0.707920 0.273254 0.150267
0.812182 0.278755 0.154337
0.909082 0.284235 0.158578
0.087765 0.360085 0.140346
0.184921 0.365848 0.143973
0.289272 0.371585 0.147767
0.398271 0.377295 0.151729
0.509396 0.382977 0.155861
0.620147 0.388631 0.160164
0.728045 0.394256 0.164639
0.830635 0.399852 0.169289
0.925482 0.405419 0.174113
0.106605 0.483884 0.153214
0.204932 0.489627 0.157408
0.309887 0.495335 0.161773
0.418964 0.501009 0.166312
0.529681 0.506646 0.171025
0.639577 0.512247 0.175914
0.746212 0.517813 0.180980
0.847170 0.523341 0.186225
0.940055 0.528833 0.191650
0.124207 0.607735 0.168007
0.223461 0.613297 0.172784
0.328830 0.618818 0.177737
0.437847 0.624297 0.182868
0.548068 0.629733 0.188179
0.657071 0.635128 0.193670
0.762455 0.640480 0.199344
0.861842 0.645789 0.205201
0.952876 0.651056 0.211244
0.140468 0.728195 0.184781
0.240435 0.733426 0.190157
0.346052 0.738611 0.195715
0.454893 0.743749 0.201455
0.564552 0.748840 0.207380
0.672645 0.753884 0.213490
0.776810 0.758882 0.219787
0.874706 0.763833 0.226273
0.964014 0.768737 0.232948
0.155304 0.841884 0.203591
0.255790 0.846646 0.209583
0.361513 0.851359 0.215761
0.470083 0.856021 0.222126
0.579134 0.860633 0.228681
0.686319 0.865196 0.235425
0.789313 0.869708 0.242361
0.885813 0.874171 0.249489
0.973537 0.878585 0.256810
0.168643 0.945492 0.224491
0.269477 0.949658 0.231114
0.375181 0.953773 0.237928
0.483406 0.957836 0.244933
0.591819 0.961847 0.252132
0.698114 0.965807 0.259524
0.800000 0.969715 0.267111
0.895213 0.973573 0.274894
0.981506 0.977380 0.282873
0.027327 0.026079 0.205825
0.119441 0.030823 0.208052
0.220697 0.035575 0.210444
0.328431 0.040334 0.213004
0.440002 0.045099 0.215730
0.552792 0.049869 0.218625
0.664206 0.054642 0.221688
0.771671 0.059419 0.224922
0.872637 0.064197 0.228326
0.049017 0.128555 0.213977
0.143177 0.133828 0.216765
0.245754 0.139095 0.219721
0.354127 0.144356 0.222846
0.465694 0.149610 0.226141
0.577880 0.154856 0.229607
0.688129 0.160094 0.233245
0.793910 0.165322 0.237056
0.892715 0.170540 0.241040
0.069867 0.241758 0.224026
0.165740 0.247364 0.227383
0.269362 0.252953 0.230912
0.378150 0.258524 0.234613
0.489547 0.264077 0.238486
0.601015 0.269610 0.242534
0.710041 0.275125 0.246757
0.814133 0.280618 0.251156
0.910822 0.286092 0.255731
0.089720 0.362045 0.236003
0.187006 0.367800 0.239940
0.291427 0.373528 0.244051
0.400441 0.379228 0.248338
0.511530 0.384900 0.252801
0.622197 0.390545 0.257441
0.729967 0.396160 0.262259
0.832390 0.401746 0.267257
0.927035 0.407303 0.272434
0.108440 0.485838 0.249942
0.206871 0.491570 0.254470
0.311876 0.497266 0.259175
0.420953 0.502927 0.264058
0.531624 0.508552 0.269121
0.641431 0.514141 0.274364
0.747939 0.519694 0.279789
0.848735 0.525210 0.285396
0.941428 0.530689 0.291186
0.125911 0.609629 0.265880
0.225247 0.615177 0.271009
0.330648 0.620683 0.276318
0.439652 0.626148 0.281809
0.549818 0.631570 0.287483
0.658730 0.636950 0.293339
0.763989 0.642288 0.299381
0.863222 0.647583 0.305607
0.954075 0.652835 0.312019
0.142032 0.729977 0.283853
0.242059 0.735192 0.289594
0.347693 0.740361 0.295517
0.456511 0.745483 0.301626
0.566110 0.750558 0.307920
0.674111 0.755587 0.314399
0.778155 0.760568 0.321066
0.875906 0.765503 0.327920
0.965048 0.770391 0.334961
0.156720 0.843507 0.303896
0.257248 0.848252 0.310257
0.362974 0.852948 0.316805
0.471513 0.857593 0.323539
0.580500 0.862188 0.330461
0.687594 0.866734 0.337572
0.790474 0.871230 0.344871
0.886839 0.875676 0.352358
0.974411 0.880073 0.360035
0.169904 0.946912 0.326038
0.270764 0.951062 0.333028
0.376460 0.955159 0.340207
0.484646 0.959204 0.347575
0.592995 0.963197 0.355131
0.699201 0.967140 0.362877
0.800980 0.971031 0.370813
0.896069 0.974871 0.378938
0.982226 0.978661 0.387253
0.029550 0.027689 0.304902
0.121886 0.032436 0.307302
0.223289 0.037191 0.309874
0.331099 0.041952 0.312620
0.442678 0.046718 0.315539
0.555413 0.051489 0.318633
0.666713 0.056264 0.321903
0.774009 0.061041 0.325347
0.874755 0.065820 0.328968
0.051162 0.130346 0.313662
0.145510 0.135617 0.316646
0.248205 0.140882 0.319803
0.356629 0.146141 0.323136
0.468186 0.151393 0.326645
0.580304 0.156636 0.330330
0.690432 0.161870 0.334191
0.796043 0.167095 0.338230
0.894631 0.172309 0.342446
0.071919 0.243664 0.324393
0.167947 0.249264 0.327966
0.271660 0.254847 0.331715
0.380480 0.260412 0.335641
0.491851 0.265958 0.339744
0.603242 0.271485 0.344026
0.712142 0.276993 0.348485
0.816065 0.282480 0.353124
0.912544 0.287946 0.357942
0.091663 0.364002 0.337114
0.189077 0.369748 0.341282
0.293566 0.375467 0.345629
0.402593 0.381158 0.350153
0.513644 0.386820 0.354858
0.624227 0.392455 0.359741
0.731870 0.398060 0.364805
0.834126 0.403637 0.370049
0.928569 0.409183 0.375475
0.110262 0.487788 0.351845
0.208795 0.493508 0.356615
0.313848 0.499193 0.361564
0.422924 0.504841 0.366693
0.533547 0.510454 0.372004
0.643265 0.516031 0.377495
0.749646 0.521572 0.383168
0.850281 0.527075 0.389022
0.942783 0.532542 0.395059
0.127601 0.611518 0.368606
0.227016 0.617052 0.373982
0.332447 0.622544 0.379539
0.441437 0.627994 0.385278
0.551549 0.633402 0.391199
0.660369 0.638767 0.397301
0.765504 0.644091 0.403587
0.864583 0.649371 0.410054
0.955258 0.654610 0.416704
0.143581 0.731753 0.387412
0.243667 0.736953 0.393399
0.349316 0.742106 0.399569
0.458110 0.747212 0.405920
0.567649 0.752271 0.412454
0.675558 0.757284 0.419171
0.779482 0.762249 0.426070
0.877088 0.767168 0.433152
0.966065 0.772041 0.440416
0.158120 0.845124 0.408278
0.258689 0.849853 0.414878
0.364418 0.854531 0.421661
0.472924 0.859159 0.428627
0.581848 0.863738 0.435775
0.688851 0.868266 0.443105
0.791616 0.872745 0.450617
0.887847 0.877175 0.458311
0.975269 0.881555 0.466186
0.171149 0.948327 0.431208
0.272034 0.952459 0.438423
0.377721 0.956538 0.445819
0.485868 0.960566 0.453397
0.594151 0.964542 0.461157
0.700269 0.968467 0.469097
0.801941 0.972341 0.477218
0.896908 0.976164 0.485518
0.982931 0.979937 0.493997
0.031765 0.029300 0.407931
0.124321 0.034050 0.410457
0.225868 0.038807 0.413161
0.333750 0.043570 0.416040
0.445336 0.048338 0.419097
0.558014 0.053111 0.422331
0.669199 0.057886 0.425742
0.776326 0.062664 0.429331
0.876853 0.067444 0.433098
0.053299 0.132137 0.417133
0.147831 0.137406 0.420254
0.250641 0.142669 0.423552
0.359114 0.147926 0.427028
0.470660 0.153174 0.430682
0.582708 0.158415 0.434513
0.692714 0.163646 0.438522
0.798154 0.168867 0.442710
0.896527 0.174077 0.447075
0.073960 0.245568 0.428338
0.170142 0.251162 0.432056
0.273943 0.256739 0.435952
0.382792 0.262297 0.440026
0.494137 0.267837 0.444278
0.605449 0.273358 0.448708
0.714223 0.278858 0.453317
0.817976 0.284338 0.458103
0.914246 0.289797 0.463068
0.093595 0.365957 0.441554
0.191133 0.371693 0.445870
0.295688 0.377402 0.450365
0.404727 0.383084 0.455039
0.515740 0.388737 0.459890
0.626237 0.394362 0.464920
0.733752 0.399957 0.470128
0.835842 0.405523 0.475514
0.930085 0.411059 0.481078
0.112072 0.489735 0.456784
0.210704 0.495443 0.461701
0.315803 0.501115 0.466796
0.424876 0.506752 0.472068
0.535451 0.512352 0.477519
0.645079 0.517917 0.483148
0.751333 0.523445 0.488955
0.851808 0.528936 0.494939
0.944120 0.534390 0.501100
0.129277 0.613402 0.474032
0.228769 0.618921 0.479548
0.334230 0.624399 0.485242
0.443204 0.629835 0.491113
0.553261 0.635229 0.497161
0.661989 0.640580 0.503387
0.767000 0.645889 0.509789
0.865927 0.651155 0.516367
0.956423 0.656379 0.523120
0.145115 0.733524 0.493294
0.245258 0.738708 0.499407
0.350922 0.743845 0.505697
0.459690 0.748935 0.512163
0.569169 0.753979 0.518805
0.676986 0.758975 0.525622
0.780790 0.763925 0.532613
0.878253 0.768828 0.539779
0.967066 0.773685 0.547116
0.159505 0.846736 0.514561
0.260113 0.851447 0.521267
0.365843 0.856108 0.528147
0.474315 0.860720 0.535202
0.583176 0.865281 0.542430
0.690088 0.869793 0.549830
0.792740 0.874255 0.557402
0.888838 0.878668 0.565144
0.976112 0.883031 0.573054
0.172378 0.949736 0.537813
0.273286 0.953850 0.545104
0.378963 0.957912 0.552567
0.487071 0.961922 0.560201
0.595288 0.965881 0.568004
0.701318 0.969788 0.575976
0.802884 0.973645 0.584114
0.897730 0.977451 0.592418
0.983621 0.981207 0.600885
0.033974 0.030912 0.512819
0.126745 0.035665 0.515424
0.228433 0.040424 0.518205
0.336385 0.045189 0.521163
0.447975 0.049958 0.524297
0.560596 0.054732 0.527608
0.671665 0.059509 0.531094
0.778622 0.064287 0.534757
0.878930 0.069067 0.538595
0.055427 0.133927 0.522284
0.150140 0.139194 0.525482
0.253062 0.144455 0.528857
0.361582 0.149709 0.532407
0.473114 0.154955 0.536134
0.585093 0.160192 0.540036
0.694976 0.165420 0.544113
0.800246 0.170638 0.548366
0.898403 0.175844 0.552793
0.075991 0.247469 0.533744
0.172323 0.253058 0.537534
0.276211 0.258629 0.541500
0.385086 0.264181 0.545641
0.496403 0.269714 0.549957
0.607636 0.275228 0.554448
0.716284 0.280722 0.559112
0.819868 0.286194 0.563951
0.915929 0.291646 0.568963
0.095515 0.367908 0.547192
0.193175 0.373635 0.551572
0.297794 0.379335 0.556126
0.406843 0.385007 0.560854
0.517815 0.390651 0.565756
0.628227 0.396265 0.570830
0.735615 0.401851 0.576078
0.837540 0.407407 0.581497
0.931582 0.412933 0.587087
0.113868 0.491677 0.562618
0.212597 0.497373 0.567583
0.317741 0.503033 0.572721
0.426809 0.508658 0.578031
0.537335 0.514246 0.583512
0.646873 0.519798 0.589165
0.753001 0.525314 0.594987
0.853316 0.530792 0.600979
0.945439 0.536233 0.607139
0.130940 0.615281 0.580007
0.230506 0.620786 0.585550
0.335994 0.626250 0.591265
0.444953 0.631672 0.597149
0.554953 0.637051 0.603202
0.663590 0.642388 0.609423
0.768477 0.647682 0.615811
0.867251 0.652934 0.622364
0.957572 0.658143 0.629082
0.146635 0.735290 0.599333
0.246833 0.740458 0.605448
0.352509 0.745579 0.611729
0.461251 0.750653 0.618178
0.570669 0.755681 0.624791
0.678394 0.760662 0.631568
0.782080 0.765596 0.638508
0.879400 0.770483 0.645608
0.968050 0.775323 0.652867
0.160874 0.848341 0.620566
0.261520 0.853036 0.627239
0.367249 0.857680 0.634076
0.475688 0.862274 0.641074
0.584484 0.866819 0.648232
0.691307 0.871314 0.655549
0.793845 0.875759 0.663023
0.889812 0.880155 0.670651
0.976939 0.884502 0.678432
0.173591 0.951139 0.643662
0.274521 0.955235 0.650878
0.380187 0.959279 0.658252
0.488254 0.963272 0.665782
0.596406 0.967213 0.673467
0.702348 0.971104 0.681302
0.803809 0.974943 0.689288
0.898535 0.978732 0.697420
0.984295 0.982471 0.705696
0.036175 0.032526 0.617471
0.129158 0.037280 0.620102
0.230983 0.042041 0.622906
0.339004 0.046808 0.625883
0.450596 0.051579 0.629031
0.563157 0.056354 0.632351
0.674109 0.061131 0.635843
0.780897 0.065910 0.639504
0.880986 0.070690 0.643336
0.057546 0.135716 0.627009
0.152436 0.140981 0.630220
0.255467 0.146240 0.633603
0.364033 0.151491 0.637156
0.475550 0.156735 0.640879
0.587457 0.161969 0.644773
0.697218 0.167193 0.648835
0.802316 0.172407 0.653066
0.900260 0.177610 0.657464
0.078012 0.249369 0.638492
0.174490 0.254952 0.642277
0.278462 0.260516 0.646232
0.387363 0.266062 0.650356
0.498650 0.271589 0.654647
0.609803 0.277096 0.659106
0.718325 0.282583 0.663732
0.821739 0.288048 0.668522
0.917593 0.293492 0.673478
0.097423 0.369856 0.651899
0.195202 0.375574 0.656251
0.299883 0.381264 0.660771
0.408940 0.386927 0.665457
0.519872 0.392561 0.670308
0.630197 0.398166 0.675322
0.737458 0.403741 0.680500
0.839217 0.409287 0.685840
0.933062 0.414802 0.691340
0.115651 0.493615 0.667204
0.214475 0.499299 0.672114
0.319661 0.504947 0.677189
0.428724 0.510560 0.682426
0.539200 0.516136 0.687824
0.648648 0.521675 0.693382
0.754649 0.527178 0.699099
0.854805 0.532644 0.704973
0.946741 0.538072 0.711002
0.132588 0.617155 0.684372
0.232227 0.622647 0.689829
0.337741 0.628096 0.695445
0.446682 0.633503 0.701219
0.556626 0.638868 0.707150
0.665171 0.644191 0.713236
0.769934 0.649470 0.719475
0.868558 0.654708 0.725865
0.958704 0.659902 0.732404
0.148140 0.737050 0.703360
0.248391 0.742202 0.709348
0.354078 0.747307 0.715489
0.462793 0.752366 0.721784
0.572150 0.757378 0.728228
0.679783 0.762342 0.734822
0.783350 0.767261 0.741561
0.880529 0.772132 0.748445
0.969019 0.776956 0.755470
0.162228 0.849941 0.724113
0.262910 0.854618 0.730612
0.368637 0.859246 0.737258
0.477042 0.863823 0.744051
0.585774 0.868351 0.750986
0.692506 0.872829 0.758062
0.794932 0.877257 0.765276
0.890768 0.881637 0.772626
0.977750 0.885967 0.780108
0.174788 0.952536 0.746559
0.275738 0.956614 0.753546
0.381392 0.960641 0.760673
0.489418 0.964616 0.767937
0.597504 0.968540 0.775335
0.703360 0.972413 0.782864
0.804716 0.976236 0.790521
0.899323 0.980007 0.798303
0.984955 0.983729 0.806205
0.038369 0.034139 0.719791
0.131560 0.038896 0.722393
0.233520 0.043660 0.725160
0.341606 0.048428 0.728092
0.453198 0.053200 0.731188
0.565699 0.057976 0.734447
0.676534 0.062754 0.737868
0.783151 0.067534 0.741451
0.883022 0.072313 0.745194
0.059656 0.137505 0.729200
0.154720 0.142768 0.732355
0.257858 0.148024 0.735673
0.366466 0.153273 0.739154
0.477966 0.158513 0.742795
0.589802 0.163744 0.746596
0.699439 0.168965 0.750557
0.804367 0.174175 0.754675
0.902096 0.179374 0.758950
0.080022 0.251267 0.740461
0.176643 0.256843 0.744160
0.280697 0.262402 0.748020
0.389621 0.267941 0.752038
0.500878 0.273461 0.756213
0.611951 0.278962 0.760545
0.720345 0.284441 0.765031
0.823591 0.289899 0.769671
0.919238 0.295336 0.774462
0.099319 0.371801 0.753540
0.197214 0.377509 0.757772
0.301955 0.383190 0.762160
0.411019 0.388843 0.766703
0.521909 0.394467 0.771398
0.632148 0.400062 0.776244
0.739281 0.405628 0.781240
0.840876 0.411163 0.786384
0.934523 0.416668 0.791674
0.117421 0.495550 0.768394
0.216337 0.501221 0.773145
0.321564 0.506857 0.778046
0.430620 0.512457 0.783096
0.541045 0.518021 0.788293
0.650403 0.523548 0.793636
0.756278 0.529039 0.799121
0.856276 0.534492 0.804748
0.948025 0.539907 0.810514
0.134222 0.619025 0.784971
0.233932 0.624502 0.790221
0.339470 0.629937 0.795616
0.448392 0.635330 0.801154
0.558280 0.640680 0.806832
0.666732 0.645988 0.812647
0.771373 0.651254 0.818599
0.869846 0.656476 0.824683
0.959819 0.661656 0.830898
0.149630 0.738805 0.803205
0.249932 0.743941 0.808933
0.355629 0.749030 0.814799
0.464316 0.754073 0.820799
0.573611 0.759069 0.826931
0.681153 0.764018 0.833192
0.784602 0.768920 0.839580
0.881640 0.773776 0.846091
0.969971 0.778584 0.852723
0.163567 0.851535 0.823016
0.264282 0.856195 0.829196
0.370007 0.860806 0.835503
0.478376 0.865366 0.841937
0.587044 0.869877 0.848492
0.693686 0.874338 0.855166
0.796001 0.878750 0.861956
0.891708 0.883113 0.868857
0.978546 0.887426 0.875867
0.175969 0.953927 0.844309
0.276937 0.957988 0.850908
0.382579 0.961997 0.857625
0.490563 0.965955 0.864456
0.598584 0.969861 0.871397
0.704353 0.973717 0.878445
0.805604 0.977522 0.885595
0.900095 0.981277 0.892844
0.985599 0.984982 0.900186
0.040555 0.035754 0.817680
0.133950 0.040513 0.820193
0.236042 0.045278 0.822860
0.344191 0.050048 0.825680
0.455782 0.054822 0.828652
0.568221 0.059599 0.831776
0.678938 0.064377 0.835050
0.785385 0.069157 0.838472
0.885037 0.073937 0.842041
0.061757 0.139293 0.826744
0.156992 0.144554 0.829772
0.260233 0.149808 0.832951
0.368882 0.155054 0.836278
0.480364 0.160291 0.839754
0.592127 0.165518 0.843377
0.701640 0.170736 0.847145
0.806397 0.175942 0.851057
0.903913 0.181137 0.855110
0.082020 0.253163 0.837527
0.178783 0.258733 0.841056
0.282916 0.264285 0.844732
0.391862 0.269818 0.848553
0.503087 0.275332 0.852516
0.614078 0.280825 0.856621
0.722346 0.286297 0.860865
0.825423 0.291748 0.865246
0.920864 0.297177 0.869763
0.101202 0.373743 0.849979
0.199212 0.379442 0.853994
0.304010 0.385113 0.858150
0.413080 0.390756 0.862444
0.523927 0.396371 0.866875
0.634079 0.401956 0.871441
0.741084 0.407511 0.876139
0.842515 0.413036 0.880967
0.935965 0.418531 0.885923
0.119178 0.497480 0.864042
0.218184 0.503139 0.868522
0.323450 0.508763 0.873136
0.432497 0.514351 0.877882
0.542872 0.519902 0.882757
0.652139 0.525417 0.887758
0.757888 0.530895 0.892884
0.857728 0.536335 0.898131
0.949292 0.541738 0.903496
0.135842 0.620890 0.879642
0.235621 0.626352 0.884563
0.341181 0.631773 0.889610
0.450084 0.637152 0.894780
0.559914 0.642488 0.900071
0.668274 0.647781 0.905478
0.772792 0.653032 0.911000
0.871117 0.658240 0.916633
0.960917 0.663406 0.922373
0.151105 0.740554 0.896692
0.251456 0.745675 0.902026
0.357162 0.750748 0.907475
0.465820 0.755775 0.913038
0.575053 0.760755 0.918710
0.682503 0.765688 0.924488
0.785835 0.770574 0.930369
0.882734 0.775414 0.936348
0.970907 0.780207 0.942422
0.164889 0.853123 0.915090
0.265637 0.857767 0.920802
0.371359 0.862360 0.926617
0.479692 0.866904 0.932535
0.588294 0.871398 0.938549
0.694847 0.875842 0.944656
0.797052 0.880237 0.950852
0.892630 0.884583 0.957133
0.979326 0.888880 0.963493
0.177133 0.955312 0.934713
0.278119 0.959355 0.940762
0.383747 0.963347 0.946902
0.491689 0.967287 0.953129
0.599644 0.971176 0.959439
0.705326 0.975015 0.965827
0.806475 0.978803 0.972288
0.900850 0.982541 0.978817
0.986229 0.986229 0.985408
