assets/luts/moody_earth_01.cube
# Generated by scripts/generateLuts.mjs — moody_earth_01
TITLE "moody_earth_01"
LUT_3D_SIZE 5
0.022862 0.022862 0.027878
0.215471 0.032347 0.031542
0.434595 0.041862 0.035773
0.659130 0.051400 0.040581
0.868338 0.060952 0.045977
0.065733 0.237942 0.042477
0.264717 0.249159 0.048091
0.484881 0.260307 0.054310
0.705778 0.271381 0.061150
0.907321 0.282377 0.068623
0.104758 0.481925 0.063796
0.307881 0.493401 0.071504
0.527720 0.504736 0.079866
0.744466 0.515927 0.088898
0.938665 0.526972 0.098617
0.138890 0.726408 0.092356
0.344393 0.736855 0.102329
0.562974 0.747116 0.113011
0.775445 0.757190 0.124417
0.962964 0.767076 0.136565
0.167366 0.944065 0.128753
0.373883 0.952381 0.141175
0.590625 0.960490 0.154359
0.799003 0.968393 0.168321
0.980770 0.976093 0.183074
0.027327 0.026079 0.205825
0.220697 0.035575 0.210444
0.440002 0.045099 0.215730
0.664206 0.054642 0.221688
0.872637 0.064197 0.228326
0.069867 0.241758 0.224026
0.269362 0.252953 0.230912
0.489547 0.264077 0.238486
0.710041 0.275125 0.246757
0.910822 0.286092 0.255731
0.108440 0.485838 0.249942
0.311876 0.497266 0.259175
0.531624 0.508552 0.269121
0.747939 0.519694 0.279789
0.941428 0.530689 0.291186
0.142032 0.729977 0.283853
0.347693 0.740361 0.295517
0.566110 0.750558 0.307920
0.778155 0.760568 0.321066
0.965048 0.770391 0.334961
0.169904 0.946912 0.326038
0.376460 0.955159 0.340207
0.592995 0.963197 0.355131
0.800980 0.971031 0.370813
0.982226 0.978661 0.387253
0.031765 0.029300 0.407931
0.225868 0.038807 0.413161
0.445336 0.048338 0.419097
0.669199 0.057886 0.425742
0.876853 0.067444 0.433098
0.073960 0.245568 0.428338
0.273943 0.256739 0.435952
0.494137 0.267837 0.444278
0.714223 0.278858 0.453317
0.914246 0.289797 0.463068
0.112072 0.489735 0.456784
0.315803 0.501115 0.466796
0.535451 0.512352 0.477519
0.751333 0.523445 0.488955
0.944120 0.534390 0.501100
0.145115 0.733524 0.493294
0.350922 0.743845 0.505697
0.569169 0.753979 0.518805
0.780790 0.763925 0.532613
0.967066 0.773685 0.547116
0.172378 0.949736 0.537813
0.378963 0.957912 0.552567
0.595288 0.965881 0.568004
0.802884 0.973645 0.584114
0.983621 0.981207 0.600885
0.036175 0.032526 0.617471
0.230983 0.042041 0.622906
0.450596 0.051579 0.629031
0.674109 0.061131 0.635843
0.880986 0.070690 0.643336
0.078012 0.249369 0.638492
0.278462 0.260516 0.646232
0.498650 0.271589 0.654647
0.718325 0.282583 0.663732
0.917593 0.293492 0.673478
0.115651 0.493615 0.667204
0.319661 0.504947 0.677189
0.539200 0.516136 0.687824
0.754649 0.527178 0.699099
0.946741 0.538072 0.711002
0.148140 0.737050 0.703360
0.354078 0.747307 0.715489
0.572150 0.757378 0.728228
0.783350 0.767261 0.741561
0.969019 0.776956 0.755470
0.174788 0.952536 0.746559
0.381392 0.960641 0.760673
0.597504 0.968540 0.775335
0.804716 0.976236 0.790521
0.984955 0.983729 0.806205
0.040555 0.035754 0.817680
0.236042 0.045278 0.822860
0.455782 0.054822 0.828652
0.678938 0.064377 0.835050
0.885037 0.073937 0.842041
0.082020 0.253163 0.837527
0.282916 0.264285 0.844732
0.503087 0.275332 0.852516
0.722346 0.286297 0.860865
0.920864 0.297177 0.869763
0.119178 0.497480 0.864042
0.323450 0.508763 0.873136
0.542872 0.519902 0.882757
0.757888 0.530895 0.892884
0.949292 0.541738 0.903496
0.151105 0.740554 0.896692
0.357162 0.750748 0.907475
0.575053 0.760755 0.918710
0.785835 0.770574 0.930369
0.970907 0.780207 0.942422
0.177133 0.955312 0.934713
0.383747 0.963347 0.946902
0.599644 0.971176 0.959439
0.806475 0.978803 0.972288
0.986229 0.986229 0.985408
