assets/luts/moody_earth_01.cube
# Generated by scripts/generateLuts.mjs — moody_earth_01
TITLE "moody_earth_01"
LUT_3D_SIZE 33
0.022862 0.022862 0.027878
0.044757 0.024045 0.028305
0.067360 0.025230 0.028741
0.090628 0.026414 0.029186
0.114518 0.027600 0.029640
0.138990 0.028786 0.030102
0.164000 0.029972 0.030573
0.189508 0.031159 0.031053
0.215471 0.032347 0.031542
0.241848 0.033535 0.032039
0.268597 0.034723 0.032546
0.295677 0.035912 0.033061
0.323047 0.037101 0.033586
0.350664 0.038291 0.034119
0.378489 0.039481 0.034661
0.406480 0.040671 0.035212
0.434595 0.041862 0.035773
0.462795 0.043053 0.036342
0.491038 0.044245 0.036920
0.519284 0.045436 0.037507
0.547491 0.046629 0.038104
0.575620 0.047821 0.038709
0.603629 0.049014 0.039324
0.631479 0.050206 0.039948
0.659130 0.051400 0.040581
0.686540 0.052593 0.041223
0.713671 0.053787 0.041874
0.740481 0.054980 0.042535
0.766931 0.056174 0.043205
0.792982 0.057368 0.043884
0.818593 0.058563 0.044572
0.843725 0.059757 0.045270
0.868338 0.060952 0.045977
0.028387 0.047168 0.029350
0.050442 0.048391 0.029807
0.073191 0.049613 0.030272
0.096594 0.050837 0.030747
0.120607 0.052060 0.031230
0.145189 0.053284 0.031722
0.170299 0.054508 0.032223
0.195894 0.055732 0.032733
0.221934 0.056957 0.033251
0.248376 0.058182 0.033779
0.275179 0.059407 0.034315
0.302302 0.060632 0.034861
0.329704 0.061858 0.035415
0.357344 0.063084 0.035979
0.385180 0.064310 0.036551
0.413172 0.065536 0.037133
0.441280 0.066762 0.037723
0.469461 0.067988 0.038323
0.497676 0.069215 0.038932
0.525883 0.070442 0.039550
0.554043 0.071668 0.040177
0.582116 0.072895 0.040813
0.610060 0.074122 0.041459
0.637836 0.075349 0.042114
0.665403 0.076576 0.042778
0.692721 0.077803 0.043451
0.719752 0.079030 0.044133
0.746453 0.080257 0.044825
0.772787 0.081483 0.045527
0.798713 0.082710 0.046237
0.824192 0.083937 0.046957
0.849183 0.085164 0.047687
0.873649 0.086391 0.048425
0.033870 0.072327 0.030922
0.056078 0.073585 0.031408
0.078969 0.074843 0.031903
0.102500 0.076102 0.032407
0.126631 0.077360 0.032920
0.151319 0.078618 0.033442
0.176523 0.079877 0.033973
0.202201 0.081135 0.034513
0.228312 0.082394 0.035062
0.254815 0.083653 0.035619
0.281668 0.084912 0.036186
0.308831 0.086170 0.036762
0.336262 0.087429 0.037347
0.363920 0.088688 0.037941
0.391765 0.089946 0.038544
0.419756 0.091205 0.039156
0.447851 0.092464 0.039777
0.476011 0.093722 0.040408
0.504196 0.094981 0.041047
0.532363 0.096239 0.041696
0.560475 0.097497 0.042354
0.588489 0.098755 0.043022
0.616366 0.100013 0.043698
0.644066 0.101271 0.044384
0.671549 0.102529 0.045080
0.698775 0.103786 0.045784
0.725704 0.105044 0.046498
0.752297 0.106301 0.047222
0.778514 0.107557 0.047954
0.804315 0.108814 0.048697
0.829662 0.110070 0.049449
0.854514 0.111326 0.050210
0.878833 0.112582 0.050981
0.039309 0.098281 0.032593
0.061664 0.099571 0.033109
0.084690 0.100861 0.033634
0.108345 0.102151 0.034169
0.132587 0.103441 0.034712
0.157376 0.104731 0.035264
0.182669 0.106021 0.035825
0.208426 0.107311 0.036395
0.234604 0.108600 0.036974
0.261164 0.109890 0.037562
0.288063 0.111179 0.038159
0.315262 0.112468 0.038766
0.342718 0.113757 0.039381
0.370392 0.115045 0.040006
0.398242 0.116334 0.040639
0.426228 0.117622 0.041282
0.454310 0.118910 0.041935
0.482446 0.120197 0.042596
0.510598 0.121484 0.043267
0.538724 0.122771 0.043947
0.566784 0.124058 0.044636
0.594739 0.125345 0.045335
0.622547 0.126631 0.046043
0.650171 0.127916 0.046760
0.677568 0.129202 0.047487
0.704701 0.130487 0.048224
0.731529 0.131771 0.048969
0.758013 0.133055 0.049725
0.784113 0.134339 0.050490
0.809790 0.135623 0.051264
0.835004 0.136905 0.052048
0.859717 0.138188 0.052841
0.883890 0.139470 0.053644
0.044700 0.124971 0.034365
0.067196 0.126290 0.034912
0.090352 0.127609 0.035467
0.114125 0.128928 0.036031
0.138475 0.130247 0.036605
0.163359 0.131565 0.037187
0.188737 0.132883 0.037778
0.214567 0.134201 0.038379
0.240809 0.135518 0.038989
0.267421 0.136835 0.039607
0.294363 0.138151 0.040235
0.321593 0.139468 0.040873
0.349071 0.140783 0.041519
0.376757 0.142099 0.042174
0.404610 0.143414 0.042839
0.432589 0.144728 0.043513
0.460654 0.146042 0.044197
0.488765 0.147356 0.044890
0.516882 0.148669 0.045592
0.544964 0.149982 0.046303
0.572972 0.151294 0.047024
0.600865 0.152606 0.047754
0.628604 0.153917 0.048494
0.656150 0.155227 0.049243
0.683462 0.156538 0.050002
0.710500 0.157847 0.050770
0.737227 0.159156 0.051548
0.763601 0.160464 0.052336
0.789584 0.161772 0.053133
0.815137 0.163079 0.053939
0.840220 0.164386 0.054756
0.864795 0.165692 0.055582
0.888822 0.166997 0.056417
0.050040 0.152339 0.036239
0.072672 0.153685 0.036816
0.095952 0.155030 0.037401
0.119839 0.156374 0.037996
0.144290 0.157718 0.038600
0.169265 0.159062 0.039213
0.194723 0.160405 0.039835
0.220623 0.161748 0.040466
0.246924 0.163090 0.041107
0.273585 0.164431 0.041756
0.300565 0.165772 0.042415
0.327824 0.167112 0.043084
0.355321 0.168452 0.043761
0.383016 0.169791 0.044448
0.410868 0.171130 0.045144
0.438838 0.172468 0.045850
0.466884 0.173805 0.046564
0.494967 0.175142 0.047289
0.523047 0.176478 0.048023
0.551084 0.177813 0.048766
0.579037 0.179148 0.049518
0.606868 0.180482 0.050281
0.634537 0.181815 0.051052
0.662004 0.183148 0.051834
0.689229 0.184480 0.052625
0.716173 0.185811 0.053425
0.742798 0.187141 0.054235
0.769062 0.188471 0.055055
0.794929 0.189800 0.055885
0.820358 0.191128 0.056724
0.845310 0.192455 0.057573
0.869747 0.193781 0.058432
0.893630 0.195107 0.059300
0.055327 0.180328 0.038215
0.078090 0.181697 0.038822
0.101489 0.183065 0.039438
0.125483 0.184432 0.040064
0.150031 0.185799 0.040698
0.175093 0.187165 0.041342
0.200627 0.188530 0.041995
0.226592 0.189894 0.042658
0.252948 0.191258 0.043329
0.279654 0.192621 0.044010
0.306669 0.193983 0.044700
0.333953 0.195345 0.045400
0.361466 0.196706 0.046109
0.389167 0.198066 0.046827
0.417017 0.199425 0.047555
0.444974 0.200784 0.048292
0.472999 0.202141 0.049039
0.501052 0.203498 0.049795
0.529093 0.204854 0.050560
0.557083 0.206209 0.051336
0.584981 0.207563 0.052121
0.612748 0.208917 0.052915
0.640345 0.210269 0.053719
0.667732 0.211621 0.054533
0.694870 0.212972 0.055356
0.721720 0.214322 0.056189
0.748242 0.215670 0.057032
0.774398 0.217018 0.057885
0.800148 0.218365 0.058747
0.825453 0.219711 0.059619
0.850275 0.221057 0.060501
0.874576 0.222401 0.061393
0.898315 0.223744 0.062295
0.060559 0.208882 0.040294
0.083447 0.210270 0.040932
0.106959 0.211658 0.041579
0.131057 0.213045 0.042235
0.155697 0.214431 0.042901
0.180841 0.215816 0.043576
0.206446 0.217201 0.044260
0.232472 0.218584 0.044954
0.258879 0.219967 0.045657
0.285627 0.221348 0.046369
0.312673 0.222729 0.047091
0.339980 0.224109 0.047822
0.367505 0.225488 0.048563
0.395210 0.226866 0.049313
0.423054 0.228243 0.050072
0.450996 0.229619 0.050842
0.478998 0.230994 0.051620
0.507019 0.232368 0.052409
0.535020 0.233741 0.053207
0.562961 0.235113 0.054014
0.590802 0.236484 0.054831
0.618505 0.237854 0.055658
0.646029 0.239223 0.056495
0.673336 0.240591 0.057341
0.700387 0.241958 0.058197
0.727141 0.243323 0.059063
0.753561 0.244688 0.059939
0.779607 0.246051 0.060825
0.805241 0.247414 0.061720
0.830424 0.248775 0.062626
0.855117 0.250135 0.063541
0.879281 0.251494 0.064467
0.902879 0.252852 0.065402
0.065733 0.237942 0.042477
0.088740 0.239347 0.043146
0.112361 0.240752 0.043824
0.136557 0.242156 0.044512
0.161285 0.243559 0.045209
0.186506 0.244960 0.045915
0.212178 0.246361 0.046631
0.238262 0.247760 0.047356
0.264717 0.249159 0.048091
0.291502 0.250556 0.048835
0.318577 0.251953 0.049588
0.345902 0.253348 0.050351
0.373438 0.254742 0.051124
0.401143 0.256135 0.051906
0.428979 0.257527 0.052698
0.456905 0.258918 0.053499
0.484881 0.260307 0.054310
0.512868 0.261696 0.055131
0.540827 0.263083 0.055962
0.568718 0.264469 0.056802
0.596502 0.265854 0.057652
0.624139 0.267238 0.058512
0.651590 0.268620 0.059381
0.678816 0.270001 0.060260
0.705778 0.271381 0.061150
0.732437 0.272760 0.062049
0.758755 0.274138 0.062958
0.784692 0.275514 0.063877
0.810210 0.276889 0.064806
0.835271 0.278263 0.065745
0.859835 0.279635 0.066694
0.883865 0.281007 0.067654
0.907321 0.282377 0.068623
0.070846 0.267452 0.044764
0.093967 0.268872 0.045465
0.117693 0.270291 0.046175
0.141982 0.271708 0.046894
0.166793 0.273125 0.047622
0.192087 0.274540 0.048360
0.217823 0.275954 0.049108
0.243960 0.277367 0.049865
0.270459 0.278778 0.050632
0.297278 0.280188 0.051408
0.324379 0.281597 0.052193
0.351720 0.283005 0.052989
0.379263 0.284412 0.053794
0.406966 0.285817 0.054608
0.434791 0.287221 0.055432
0.462698 0.288624 0.056266
0.490647 0.290025 0.057110
0.518599 0.291425 0.057964
0.546515 0.292824 0.058827
0.574354 0.294221 0.059700
0.602079 0.295617 0.060583
0.629649 0.297012 0.061476
0.657026 0.298405 0.062379
0.684171 0.299797 0.063291
0.711045 0.301188 0.064214
0.737609 0.302577 0.065147
0.763825 0.303965 0.066090
0.789653 0.305351 0.067042
0.815056 0.306736 0.068005
0.839995 0.308119 0.068978
0.864432 0.309502 0.069961
0.888328 0.310882 0.070955
0.911645 0.312261 0.071958
0.075896 0.297356 0.047158
0.099127 0.298787 0.047890
0.122952 0.300217 0.048632
0.147329 0.301646 0.049382
0.172220 0.303073 0.050143
0.197583 0.304499 0.050913
0.223378 0.305924 0.051693
0.249565 0.307347 0.052482
0.276104 0.308769 0.053281
0.302955 0.310189 0.054089
0.330077 0.311608 0.054907
0.357432 0.313026 0.055735
0.384979 0.314442 0.056572
0.412678 0.315856 0.057420
0.440491 0.317270 0.058277
0.468377 0.318681 0.059144
0.496297 0.320092 0.060020
0.524212 0.321501 0.060907
0.552082 0.322908 0.061803
0.579869 0.324314 0.062710
0.607534 0.325718 0.063626
0.635037 0.327121 0.064553
0.662339 0.328523 0.065489
0.689402 0.329923 0.066435
0.716188 0.331321 0.067392
0.742656 0.332718 0.068358
0.768770 0.334113 0.069335
0.794491 0.335507 0.070322
0.819779 0.336899 0.071319
0.844597 0.338290 0.072326
0.868907 0.339679 0.073344
0.892671 0.341066 0.074371
0.915850 0.342452 0.075410
0.080881 0.327598 0.049658
0.104217 0.329038 0.050422
0.128136 0.330476 0.051196
0.152598 0.331913 0.051979
0.177564 0.333348 0.052771
0.202992 0.334782 0.053574
0.228842 0.336214 0.054386
0.255076 0.337645 0.055207
0.281652 0.339074 0.056039
0.308530 0.340502 0.056880
0.335672 0.341928 0.057731
0.363037 0.343353 0.058591
0.390586 0.344776 0.059462
0.418279 0.346197 0.060342
0.446076 0.347617 0.061232
0.473939 0.349035 0.062132
0.501829 0.350452 0.063042
0.529705 0.351867 0.063962
0.557530 0.353280 0.064892
0.585263 0.354692 0.065832
0.612867 0.356102 0.066782
0.640301 0.357511 0.067742
0.667529 0.358918 0.068713
0.694510 0.360323 0.069693
0.721207 0.361726 0.070684
0.747581 0.363128 0.071684
0.773593 0.364528 0.072695
0.799205 0.365927 0.073717
0.824380 0.367324 0.074748
0.849079 0.368719 0.075790
0.873263 0.370112 0.076842
0.896896 0.371504 0.077905
0.919938 0.372894 0.078978
0.085799 0.358121 0.052266
0.109234 0.359567 0.053062
0.133244 0.361011 0.053868
0.157786 0.362453 0.054684
0.182822 0.363894 0.055509
0.208312 0.365333 0.056344
0.234214 0.366770 0.057188
0.260490 0.368206 0.058043
0.287100 0.369640 0.058907
0.314004 0.371072 0.059781
0.341162 0.372503 0.060665
0.368534 0.373932 0.061559
0.396083 0.375359 0.062462
0.423767 0.376785 0.063376
0.451548 0.378208 0.064300
0.479386 0.379630 0.065233
0.507243 0.381051 0.066177
0.535080 0.382469 0.067131
0.562857 0.383886 0.068095
0.590536 0.385301 0.069068
0.618077 0.386714 0.070053
0.645444 0.388126 0.071047
0.672596 0.389535 0.072051
0.699495 0.390943 0.073066
0.726103 0.392349 0.074091
0.752382 0.393753 0.075126
0.778293 0.395156 0.076172
0.803798 0.396556 0.077228
0.828860 0.397955 0.078294
0.853440 0.399352 0.079371
0.877500 0.400747 0.080459
0.901003 0.402140 0.081556
0.923911 0.403532 0.082665
0.090648 0.388871 0.054983
0.114178 0.390320 0.055812
0.138273 0.391767 0.056650
0.162892 0.393212 0.057498
0.187995 0.394655 0.058356
0.213541 0.396097 0.059224
0.239492 0.397536 0.060102
0.265808 0.398974 0.060989
0.292448 0.400410 0.061887
0.319374 0.401845 0.062794
0.346545 0.403277 0.063711
0.373924 0.404708 0.064638
0.401469 0.406137 0.065576
0.429142 0.407563 0.066523
0.456904 0.408988 0.067480
0.484717 0.410412 0.068448
0.512540 0.411833 0.069426
0.540335 0.413252 0.070413
0.568064 0.414670 0.071411
0.595687 0.416085 0.072420
0.623166 0.417499 0.073438
0.650463 0.418911 0.074467
0.677540 0.420321 0.075506
0.704357 0.421729 0.076555
0.730876 0.423135 0.077615
0.757061 0.424539 0.078685
0.782871 0.425941 0.079766
0.808270 0.427341 0.080857
0.833220 0.428739 0.081959
0.857682 0.430136 0.083071
0.881619 0.431530 0.084193
0.904994 0.432922 0.085327
0.927768 0.434313 0.086471
0.095425 0.419792 0.057810
0.119046 0.421241 0.058671
0.143223 0.422688 0.059542
0.167913 0.424133 0.060424
0.193079 0.425577 0.061315
0.218679 0.427018 0.062216
0.244675 0.428457 0.063127
0.271027 0.429895 0.064048
0.297695 0.431330 0.064979
0.324640 0.432764 0.065919
0.351822 0.434196 0.066870
0.379203 0.435625 0.067832
0.406744 0.437053 0.068803
0.434404 0.438479 0.069784
0.462146 0.439902 0.070776
0.489930 0.441324 0.071777
0.517718 0.442744 0.072789
0.545471 0.444162 0.073811
0.573150 0.445577 0.074844
0.600717 0.446991 0.075887
0.628134 0.448403 0.076940
0.655361 0.449812 0.078003
0.682361 0.451220 0.079077
0.709096 0.452625 0.080162
0.735528 0.454029 0.081257
0.761618 0.455430 0.082362
0.787328 0.456829 0.083478
0.812622 0.458227 0.084605
0.837460 0.459622 0.085742
0.861806 0.461015 0.086890
0.885622 0.462406 0.088048
0.908869 0.463795 0.089217
0.931512 0.465182 0.090397
0.100129 0.450828 0.060747
0.123837 0.452275 0.061642
0.148090 0.453720 0.062546
0.172849 0.455162 0.063461
0.198074 0.456603 0.064385
0.223725 0.458042 0.065320
0.249762 0.459478 0.066265
0.276147 0.460913 0.067219
0.302839 0.462345 0.068184
0.329801 0.463776 0.069159
0.356992 0.465204 0.070144
0.384373 0.466630 0.071139
0.411907 0.468054 0.072144
0.439552 0.469476 0.073160
0.467272 0.470896 0.074186
0.495027 0.472314 0.075222
0.522778 0.473729 0.076269
0.550487 0.475143 0.077326
0.578116 0.476554 0.078393
0.605626 0.477964 0.079471
0.632979 0.479371 0.080559
0.660137 0.480775 0.081658
0.687061 0.482178 0.082767
0.713714 0.483579 0.083887
0.740057 0.484977 0.085018
0.766054 0.486374 0.086159
0.791665 0.487768 0.087310
0.816854 0.489160 0.088473
0.841582 0.490549 0.089646
0.865813 0.491937 0.090830
0.889508 0.493322 0.092024
0.912631 0.494705 0.093230
0.935144 0.496086 0.094446
0.104758 0.481925 0.063796
0.128548 0.483367 0.064724
0.152875 0.484807 0.065663
0.177698 0.486245 0.066611
0.202978 0.487680 0.067569
0.228675 0.489114 0.068538
0.254751 0.490545 0.069516
0.281166 0.491974 0.070505
0.307881 0.493401 0.071504
0.334856 0.494825 0.072513
0.362053 0.496248 0.073532
0.389433 0.497668 0.074562
0.416957 0.499086 0.075602
0.444586 0.500502 0.076653
0.472282 0.501915 0.077713
0.500006 0.503326 0.078784
0.527720 0.504736 0.079866
0.555384 0.506142 0.080958
0.582962 0.507547 0.082061
0.610415 0.508949 0.083174
0.637704 0.510349 0.084297
0.664791 0.511747 0.085432
0.691639 0.513142 0.086577
0.718210 0.514536 0.087732
0.744466 0.515927 0.088898
0.770369 0.517315 0.090075
0.795882 0.518702 0.091263
0.820967 0.520086 0.092462
0.845586 0.521468 0.093671
0.869703 0.522847 0.094891
0.893280 0.524224 0.096122
0.916279 0.525599 0.097364
0.938665 0.526972 0.098617
0.109310 0.513029 0.066959
0.133179 0.514464 0.067921
0.157574 0.515896 0.068893
0.182458 0.517326 0.069875
0.207790 0.518754 0.070867
0.233531 0.520180 0.071870
0.259642 0.521603 0.072883
0.286084 0.523024 0.073906
0.312818 0.524443 0.074940
0.339804 0.525859 0.075983
0.367005 0.527273 0.077037
0.394381 0.528685 0.078102
0.421894 0.530094 0.079177
0.449505 0.531501 0.080262
0.477176 0.532906 0.081358
0.504868 0.534308 0.082465
0.532543 0.535708 0.083582
0.560162 0.537106 0.084709
0.587688 0.538501 0.085847
0.615082 0.539894 0.086996
0.642307 0.541285 0.088156
0.669324 0.542673 0.089326
0.696096 0.544059 0.090507
0.722586 0.545442 0.091698
0.748754 0.546823 0.092901
0.774565 0.548202 0.094114
0.799980 0.549578 0.095338
0.824962 0.550952 0.096573
0.849474 0.552324 0.097819
0.873478 0.553693 0.099076
0.896938 0.555060 0.100344
0.919816 0.556424 0.101623
0.942076 0.557786 0.102913
0.113784 0.544085 0.070235
0.137726 0.545510 0.071231
0.162187 0.546932 0.072238
0.187128 0.548352 0.073254
0.212508 0.549770 0.074281
0.238290 0.551185 0.075318
0.264433 0.552598 0.076366
0.290899 0.554009 0.077424
0.317650 0.555417 0.078492
0.344645 0.556822 0.079571
0.371848 0.558226 0.080660
0.399218 0.559626 0.081760
0.426718 0.561025 0.082870
0.454309 0.562421 0.083991
0.481953 0.563814 0.085122
0.509612 0.565205 0.086264
0.537247 0.566594 0.087417
0.564820 0.567980 0.088580
0.592293 0.569364 0.089754
0.619629 0.570745 0.090939
0.646789 0.572124 0.092135
0.673736 0.573500 0.093341
0.700433 0.574874 0.094558
0.726841 0.576245 0.095787
0.752923 0.577614 0.097026
0.778641 0.578981 0.098276
0.803960 0.580345 0.099537
0.828840 0.581706 0.100809
0.853245 0.583065 0.102092
0.877139 0.584422 0.103386
0.900483 0.585776 0.104691
0.923242 0.587127 0.106007
0.945377 0.588476 0.107335
0.118177 0.575039 0.073627
0.142190 0.576451 0.074658
0.166713 0.577861 0.075699
0.191707 0.579269 0.076750
0.217132 0.580674 0.077812
0.242951 0.582077 0.078884
0.269123 0.583477 0.079966
0.295611 0.584875 0.081059
0.322376 0.586270 0.082163
0.349378 0.587662 0.083277
0.376580 0.589052 0.084402
0.403943 0.590440 0.085537
0.431428 0.591825 0.086683
0.458998 0.593207 0.087839
0.486614 0.594587 0.089007
0.514238 0.595965 0.090185
0.541832 0.597339 0.091373
0.569358 0.598712 0.092573
0.596778 0.600081 0.093783
0.624055 0.601449 0.095004
0.651151 0.602813 0.096236
0.678028 0.604175 0.097479
0.704649 0.605535 0.098733
0.730976 0.606892 0.099998
0.756972 0.608246 0.101274
0.782599 0.609598 0.102561
0.807822 0.610947 0.103859
0.832601 0.612294 0.105169
0.856902 0.613638 0.106489
0.880686 0.614980 0.107821
0.903916 0.616319 0.109163
0.926557 0.617655 0.110517
0.948571 0.618989 0.111883
0.122489 0.605837 0.077135
0.146568 0.607235 0.078201
0.171149 0.608630 0.079277
0.196193 0.610023 0.080363
0.221660 0.611413 0.081460
0.247513 0.612801 0.082567
0.273712 0.614186 0.083685
0.300219 0.615568 0.084814
0.326995 0.616948 0.085953
0.354002 0.618325 0.087103
0.381201 0.619699 0.088263
0.408555 0.621071 0.089434
0.436024 0.622441 0.090616
0.463571 0.623807 0.091809
0.491157 0.625171 0.093012
0.518746 0.626533 0.094226
0.546298 0.627892 0.095452
0.573777 0.629248 0.096688
0.601144 0.630601 0.097935
0.628361 0.631952 0.099193
0.655392 0.633300 0.100462
0.682199 0.634646 0.101742
0.708744 0.635989 0.103033
0.734991 0.637329 0.104335
0.760902 0.638667 0.105648
0.786439 0.640002 0.106972
0.811567 0.641334 0.108308
0.836247 0.642664 0.109655
0.860444 0.643991 0.111013
0.884120 0.645315 0.112382
0.907239 0.646637 0.113763
0.929764 0.647956 0.115155
0.951659 0.649273 0.116558
0.126718 0.636426 0.080761
0.150859 0.637807 0.081862
0.175495 0.639185 0.082973
0.200585 0.640561 0.084095
0.226092 0.641934 0.085227
0.251976 0.643304 0.086370
0.278198 0.644671 0.087524
0.304722 0.646036 0.088688
0.331507 0.647398 0.089863
0.358517 0.648758 0.091049
0.385711 0.650114 0.092246
0.413053 0.651468 0.093453
0.440505 0.652820 0.094671
0.468028 0.654168 0.095900
0.495584 0.655514 0.097140
0.523136 0.656857 0.098391
0.550646 0.658198 0.099653
0.578076 0.659536 0.100926
0.605389 0.660871 0.102210
0.632547 0.662203 0.103505
0.659513 0.663532 0.104812
0.686250 0.664859 0.106129
0.712721 0.666183 0.107457
0.738887 0.667505 0.108797
0.764713 0.668824 0.110148
0.790162 0.670140 0.111510
0.815196 0.671453 0.112884
0.839778 0.672763 0.114268
0.863873 0.674071 0.115665
0.887443 0.675376 0.117072
0.910452 0.676678 0.118491
0.932863 0.677978 0.119922
0.954641 0.679275 0.121363
0.130862 0.666753 0.084506
0.155062 0.668114 0.085642
0.179749 0.669473 0.086789
0.204883 0.670829 0.087946
0.230425 0.672183 0.089115
0.256337 0.673533 0.090294
0.282581 0.674881 0.091483
0.309119 0.676226 0.092684
0.335911 0.677568 0.093895
0.362921 0.678907 0.095117
0.390109 0.680244 0.096351
0.417438 0.681578 0.097595
0.444871 0.682909 0.098850
0.472368 0.684237 0.100116
0.499893 0.685563 0.101393
0.527407 0.686885 0.102681
0.554874 0.688205 0.103980
0.582255 0.689523 0.105290
0.609514 0.690837 0.106611
0.636613 0.692148 0.107944
0.663515 0.693457 0.109288
0.690182 0.694763 0.110643
0.716578 0.696066 0.112009
0.742665 0.697367 0.113387
0.768408 0.698664 0.114775
0.793768 0.699959 0.116176
0.818709 0.701251 0.117587
0.843195 0.702540 0.119011
0.867189 0.703826 0.120445
0.890655 0.705110 0.121891
0.913556 0.706391 0.123349
0.935856 0.707669 0.124818
0.957518 0.708944 0.126299
0.134920 0.696764 0.088371
0.159176 0.698104 0.089543
0.183910 0.699441 0.090726
0.209084 0.700776 0.091919
0.234659 0.702107 0.093124
0.260597 0.703436 0.094339
0.286860 0.704761 0.095565
0.313409 0.706084 0.096802
0.340207 0.707404 0.098050
0.367215 0.708722 0.099309
0.394395 0.710036 0.100579
0.421710 0.711347 0.101860
0.449121 0.712656 0.103152
0.476592 0.713962 0.104455
0.504084 0.715265 0.105770
0.531561 0.716565 0.107095
0.558984 0.717862 0.108432
0.586316 0.719156 0.109780
0.613520 0.720448 0.111139
0.640559 0.721737 0.112509
0.667397 0.723022 0.113891
0.693995 0.724305 0.115284
0.720316 0.725585 0.116688
0.746325 0.726863 0.118104
0.771985 0.728137 0.119532
0.797258 0.729408 0.120970
0.822108 0.730677 0.122421
0.846499 0.731943 0.123882
0.870394 0.733205 0.125356
0.893757 0.734465 0.126841
0.916552 0.735722 0.128337
0.938742 0.736977 0.129846
0.960292 0.738228 0.131366
0.138890 0.726408 0.092356
0.163198 0.727724 0.093565
0.187977 0.729037 0.094784
0.213188 0.730347 0.096014
0.238794 0.731655 0.097255
0.264755 0.732959 0.098507
0.291034 0.734261 0.099770
0.317592 0.735559 0.101044
0.344393 0.736855 0.102329
0.371397 0.738148 0.103625
0.398567 0.739438 0.104933
0.425866 0.740725 0.106251
0.453256 0.742009 0.107580
0.480699 0.743290 0.108921
0.508158 0.744568 0.110273
0.535595 0.745844 0.111636
0.562974 0.747116 0.113011
0.590257 0.748386 0.114397
0.617407 0.749652 0.115794
0.644386 0.750916 0.117203
0.671159 0.752176 0.118623
0.697688 0.753434 0.120054
0.723937 0.754689 0.121497
0.749868 0.755941 0.122951
0.775445 0.757190 0.124417
0.800632 0.758436 0.125895
0.825393 0.759679 0.127384
0.849690 0.760919 0.128885
0.873488 0.762156 0.130398
0.896750 0.763391 0.131922
0.919441 0.764622 0.133458
0.941524 0.765851 0.135006
0.962964 0.767076 0.136565
0.142772 0.755630 0.096465
0.167129 0.756921 0.097710
0.191949 0.758208 0.098966
0.217195 0.759492 0.100233
0.242827 0.760773 0.101511
0.268809 0.762051 0.102800
0.295102 0.763327 0.104100
0.321668 0.764599 0.105411
0.348469 0.765868 0.106734
0.375468 0.767135 0.108067
0.402627 0.768398 0.109412
0.429908 0.769658 0.110768
0.457275 0.770916 0.112135
0.484689 0.772170 0.113514
0.512114 0.773422 0.114904
0.539512 0.774670 0.116305
0.566846 0.775915 0.117718
0.594079 0.777158 0.119142
0.621174 0.778397 0.120578
0.648094 0.779634 0.122025
0.674803 0.780867 0.123484
0.701263 0.782098 0.124954
0.727439 0.783326 0.126436
0.753293 0.784550 0.127929
0.778790 0.785772 0.129434
0.803892 0.786990 0.130951
0.828564 0.788206 0.132480
0.852769 0.789419 0.134020
0.876472 0.790628 0.135572
0.899635 0.791835 0.137136
0.922224 0.793039 0.138712
0.944202 0.794240 0.140299
0.965534 0.795437 0.141899
0.146564 0.784380 0.100697
0.170966 0.785643 0.101979
0.195825 0.786902 0.103272
0.221102 0.788158 0.104576
0.246759 0.789410 0.105891
0.272759 0.790660 0.107218
0.299063 0.791907 0.108556
0.325634 0.793151 0.109904
0.352435 0.794392 0.111265
0.379426 0.795630 0.112636
0.406573 0.796864 0.114019
0.433835 0.798096 0.115413
0.461178 0.799325 0.116818
0.488562 0.800550 0.118235
0.515952 0.801773 0.119664
0.543310 0.802992 0.121104
0.570599 0.804209 0.122555
0.597782 0.805422 0.124018
0.624822 0.806633 0.125492
0.651683 0.807840 0.126978
0.678328 0.809044 0.128476
0.704721 0.810246 0.129985
0.730824 0.811444 0.131506
0.756603 0.812639 0.133039
0.782019 0.813832 0.134584
0.807038 0.815021 0.136140
0.831623 0.816207 0.137708
