assets/luts/super8_kodak_01.cube
# Generated by scripts/generateLuts.mjs — super8_kodak_01
TITLE "super8_kodak_01"
LUT_3D_SIZE 9
0.055657 0.065616 0.062331
0.188656 0.062313 0.060270
0.321654 0.059045 0.058207
0.454650 0.055810 0.056142
0.587644 0.052609 0.054075
0.720635 0.049443 0.052006
0.843745 0.046468 0.050094
0.930206 0.044114 0.048765
1.000000 0.041794 0.047435
0.049137 0.182153 0.055812
0.182131 0.178957 0.053745
0.315123 0.175796 0.051676
0.448112 0.172669 0.049605
0.581100 0.169576 0.047532
0.714086 0.166517 0.045457
0.837190 0.163650 0.043538
0.923645 0.161403 0.042204
1.000000 0.159191 0.040868
0.042599 0.299029 0.049274
0.175587 0.295941 0.047200
0.308572 0.292888 0.045125
0.441556 0.289868 0.043048
0.574538 0.286882 0.040969
0.707518 0.283931 0.038889
0.830615 0.281171 0.036964
0.917065 0.279032 0.035624
1.000000 0.276927 0.034282
0.036042 0.416245 0.042716
0.169024 0.413265 0.040637
0.302003 0.410319 0.038556
0.434981 0.407407 0.036473
0.567957 0.404528 0.034388
0.700931 0.401684 0.032301
0.824022 0.399032 0.030371
0.910465 0.397001 0.029024
0.996907 0.395003 0.027676
0.029466 0.533801 0.036140
0.162441 0.530928 0.034055
0.295415 0.528089 0.031968
0.428387 0.525285 0.029879
0.561356 0.522514 0.027788
0.694324 0.519778 0.025695
0.817410 0.517233 0.023758
0.903847 0.515309 0.022406
0.990282 0.513419 0.021052
0.022871 0.651696 0.029545
0.155840 0.648931 0.027454
0.288808 0.646200 0.025361
0.421773 0.643503 0.023265
0.554737 0.640840 0.021168
0.687699 0.638210 0.019070
0.810778 0.635773 0.017127
0.897210 0.633957 0.015769
0.983639 0.632174 0.014409
0.016256 0.769931 0.022931
0.149220 0.767273 0.020833
0.282181 0.764650 0.018734
0.415141 0.762060 0.016633
0.548099 0.759505 0.014530
0.681055 0.756983 0.012425
0.804128 0.754654 0.010477
0.890553 0.752944 0.009112
0.976977 0.751269 0.007746
0.011425 0.856288 0.018100
0.144375 0.853886 0.015988
0.277322 0.851506 0.013875
0.410269 0.849148 0.011761
0.543215 0.846813 0.009646
0.676159 0.844499 0.007530
0.799221 0.842366 0.005570
0.885636 0.840841 0.004195
0.972050 0.839338 0.002820
0.007101 0.933582 0.013776
0.140047 0.931250 0.011660
0.272991 0.928940 0.009544
0.405934 0.926652 0.007426
0.538875 0.924386 0.005306
0.671815 0.922143 0.003186
0.794874 0.920079 0.001222
0.881285 0.918624 0.000000
0.967695 0.917191 0.000000
0.055075 0.064676 0.174137
0.188074 0.061383 0.172075
0.321071 0.058124 0.170011
0.454066 0.054899 0.167946
0.587059 0.051708 0.165878
0.720051 0.048551 0.163809
0.843160 0.045586 0.161896
0.929620 0.043242 0.160567
1.000000 0.040931 0.159236
0.048554 0.181243 0.167616
0.181547 0.178057 0.165548
0.314538 0.174906 0.163478
0.447527 0.171789 0.161407
0.580514 0.168705 0.159333
0.713500 0.165656 0.157258
0.836603 0.162799 0.155339
0.923057 0.160562 0.154004
1.000000 0.158359 0.152667
0.042014 0.298150 0.161076
0.175001 0.295072 0.159002
0.307986 0.292028 0.156926
0.440969 0.289018 0.154849
0.573950 0.286042 0.152769
0.706930 0.283100 0.150688
0.830026 0.280351 0.148763
0.916475 0.278221 0.147422
1.000000 0.276126 0.146079
0.035455 0.415397 0.154517
0.168436 0.412426 0.152437
0.301415 0.409490 0.150355
0.434392 0.406587 0.148272
0.567367 0.403719 0.146186
0.700341 0.400885 0.144099
0.823431 0.398242 0.142168
0.909874 0.396221 0.140821
0.996315 0.394233 0.139472
0.028877 0.532983 0.147939
0.161852 0.530120 0.145853
0.294825 0.527291 0.143765
0.427796 0.524496 0.141676
0.560765 0.521735 0.139584
0.693733 0.519009 0.137491
0.816817 0.516474 0.135554
0.903254 0.514559 0.134201
0.989689 0.512679 0.132846
0.022280 0.650909 0.141342
0.155249 0.648154 0.139250
0.288216 0.645432 0.137156
0.421181 0.642745 0.135061
0.554144 0.640092 0.132963
0.687106 0.637472 0.130864
0.810184 0.635045 0.128921
0.896615 0.633238 0.127562
0.983044 0.631465 0.126201
0.015664 0.769175 0.134726
0.148627 0.766527 0.132628
0.281588 0.763913 0.130528
0.414547 0.761333 0.128427
0.547504 0.758787 0.126323
0.680460 0.756275 0.124218
0.803532 0.753956 0.122268
0.889957 0.752256 0.120904
0.976380 0.750591 0.119537
0.010829 0.855606 0.129891
0.143778 0.853210 0.127779
0.276725 0.850837 0.125666
0.409672 0.848485 0.123551
0.542617 0.846156 0.121436
0.675561 0.843849 0.119319
0.798623 0.841722 0.117359
0.885037 0.840203 0.115984
0.971451 0.838706 0.114608
0.006504 0.932920 0.125566
0.139449 0.930595 0.123450
0.272392 0.928291 0.121333
0.405335 0.926009 0.119214
0.538276 0.923750 0.117095
0.671216 0.921512 0.114974
0.794274 0.919455 0.113010
0.880685 0.918006 0.111631
0.967094 0.916580 0.110251
0.054492 0.063738 0.285942
0.187491 0.060455 0.283879
0.320487 0.057205 0.281815
0.453482 0.053990 0.279749
0.586475 0.050809 0.277681
0.719466 0.047662 0.275611
0.842574 0.044707 0.273698
0.929034 0.042372 0.272368
1.000000 0.040072 0.271037
0.047970 0.180336 0.279419
0.180962 0.177160 0.277351
0.313953 0.174019 0.275281
0.446941 0.170911 0.273209
0.579928 0.167837 0.271135
0.712913 0.164798 0.269059
0.836015 0.161950 0.267139
0.922470 0.159723 0.265804
1.000000 0.157530 0.264466
0.041428 0.297274 0.272877
0.174414 0.294206 0.270803
0.307399 0.291171 0.268727
0.440382 0.288171 0.266649
0.573362 0.285205 0.264569
0.706341 0.282273 0.262487
0.829438 0.279533 0.260561
0.915886 0.277413 0.259220
1.000000 0.275327 0.257877
0.034867 0.414551 0.266317
0.167848 0.411591 0.264236
0.300826 0.408664 0.262154
0.433803 0.405771 0.260070
0.566778 0.402912 0.257984
0.699751 0.400088 0.255896
0.822841 0.397455 0.253964
0.909283 0.395443 0.252617
0.995723 0.393465 0.251268
0.028288 0.532168 0.259737
0.161262 0.529315 0.257651
0.294235 0.526496 0.255563
0.427205 0.523711 0.253472
0.560174 0.520960 0.251380
0.693141 0.518242 0.249286
0.816225 0.515717 0.247349
0.902661 0.513813 0.245995
0.989095 0.511942 0.244640
0.021689 0.650125 0.253138
0.154657 0.647379 0.251046
0.287624 0.644668 0.248952
0.420589 0.641990 0.246856
0.553551 0.639346 0.244758
0.686512 0.636737 0.242658
0.809590 0.634319 0.240714
0.896020 0.632522 0.239355
0.982449 0.630759 0.237993
0.015071 0.768422 0.246521
0.148034 0.765783 0.244422
0.280994 0.763179 0.242322
0.413953 0.760609 0.240220
0.546910 0.758073 0.238116
0.679864 0.755571 0.236010
0.802937 0.753261 0.234060
0.889361 0.751571 0.232695
0.975783 0.749915 0.231328
0.010232 0.854926 0.241682
0.143181 0.852537 0.239569
0.276128 0.850169 0.237456
0.409074 0.847824 0.235341
0.542019 0.845501 0.233225
0.674962 0.843200 0.231108
0.798024 0.841079 0.229147
0.884438 0.839567 0.227772
0.970851 0.838077 0.226396
0.005906 0.932260 0.237355
0.138851 0.929941 0.235239
0.271794 0.927643 0.233122
0.404736 0.925368 0.231003
0.537677 0.923115 0.228883
0.670616 0.920884 0.226762
0.793674 0.918833 0.224798
0.880084 0.917390 0.223419
0.966494 0.915970 0.222038
0.053910 0.062803 0.397747
0.186908 0.059530 0.395684
0.319904 0.056290 0.393619
0.452898 0.053085 0.391553
0.585890 0.049913 0.389484
0.718881 0.046776 0.387414
0.841988 0.043830 0.385500
0.928448 0.041505 0.384170
1.000000 0.039214 0.382838
0.047386 0.179432 0.391222
0.180378 0.176266 0.389154
0.313368 0.173134 0.387083
0.446356 0.170036 0.385010
0.579342 0.166972 0.382936
0.712326 0.163942 0.380859
0.835428 0.161104 0.378939
0.921882 0.158887 0.377603
1.000000 0.156703 0.376266
0.040842 0.296400 0.384679
0.173828 0.293342 0.382604
0.306812 0.290317 0.380528
0.439794 0.287327 0.378449
0.572774 0.284370 0.376368
0.705753 0.281448 0.374286
0.828848 0.278718 0.372360
0.915296 0.276608 0.371018
1.000000 0.274532 0.369674
0.034280 0.413709 0.378117
0.167260 0.410758 0.376036
0.300238 0.407841 0.373953
0.433214 0.404958 0.371868
0.566188 0.402109 0.369782
0.699160 0.399294 0.367693
0.822250 0.396671 0.365761
0.908692 0.394668 0.364413
0.995131 0.392700 0.363064
0.027698 0.531356 0.371535
0.160672 0.528513 0.369448
0.293644 0.525703 0.367360
0.426614 0.522928 0.365269
0.559583 0.520186 0.363176
0.692549 0.517479 0.361082
0.815633 0.514964 0.359144
0.902068 0.513069 0.357790
0.988502 0.511208 0.356434
0.021098 0.649344 0.364935
0.154066 0.646608 0.362842
0.287032 0.643906 0.360747
0.419996 0.641238 0.358651
0.552958 0.638604 0.356552
0.685918 0.636004 0.354451
0.808996 0.633596 0.352507
0.895426 0.631809 0.351147
0.981853 0.630055 0.349786
0.014479 0.767671 0.358316
0.147440 0.765043 0.356217
0.280400 0.762448 0.354116
0.413358 0.759888 0.352013
0.546315 0.757361 0.349909
0.679269 0.754869 0.347802
0.802341 0.752568 0.345852
0.888764 0.750888 0.344486
0.975186 0.749242 0.343118
0.009635 0.854248 0.353472
0.142584 0.851865 0.351360
0.275530 0.849504 0.349246
0.408476 0.847165 0.347131
0.541420 0.844848 0.345014
0.674364 0.842553 0.342897
0.797425 0.840439 0.340936
0.883839 0.838933 0.339560
0.970251 0.837449 0.338184
0.005308 0.931602 0.349145
0.138252 0.929289 0.347028
0.271195 0.926998 0.344911
0.404137 0.924729 0.342792
0.537078 0.922482 0.340671
0.670017 0.920257 0.338550
0.793074 0.918212 0.336585
0.879484 0.916776 0.335206
0.965893 0.915362 0.333825
0.053327 0.061871 0.509552
0.186325 0.058607 0.507488
0.319320 0.055377 0.505423
0.452314 0.052182 0.503356
0.585306 0.049020 0.501287
0.718295 0.045892 0.499216
0.841403 0.042957 0.497301
0.927862 0.040641 0.495971
1.000000 0.038360 0.494639
0.046801 0.178531 0.503026
0.179793 0.175374 0.500956
0.312782 0.172252 0.498885
0.445770 0.169164 0.496812
0.578755 0.166109 0.494737
0.711739 0.163089 0.492660
0.834840 0.160261 0.490739
0.921294 0.158053 0.489403
1.000000 0.155880 0.488064
0.040256 0.295530 0.496481
0.173242 0.292481 0.494405
0.306225 0.289466 0.492328
0.439207 0.286485 0.490249
0.572186 0.283539 0.488168
0.705164 0.280626 0.486085
0.828259 0.277905 0.484158
0.914706 0.275805 0.482815
1.000000 0.273739 0.481471
0.033692 0.412869 0.489917
0.166671 0.409927 0.487835
0.299649 0.407020 0.485752
0.432624 0.404147 0.483667
0.565598 0.401308 0.481579
0.698570 0.398502 0.479490
0.821659 0.395889 0.477558
0.908100 0.393896 0.476209
0.994539 0.391938 0.474859
0.027109 0.530547 0.483333
0.160082 0.527713 0.481246
0.293054 0.524914 0.479157
0.426023 0.522148 0.477065
0.558991 0.519416 0.474972
0.691957 0.516718 0.472877
0.815040 0.514213 0.470938
0.901475 0.512328 0.469584
0.987908 0.510476 0.468228
0.020507 0.648565 0.476731
0.153474 0.645839 0.474638
0.286440 0.643147 0.472543
0.419403 0.640489 0.470445
0.552365 0.637864 0.468346
0.685324 0.635274 0.466245
0.808402 0.632876 0.464300
0.894831 0.631098 0.462940
0.981258 0.629355 0.461578
0.013886 0.766923 0.470110
0.146847 0.764304 0.468011
0.279807 0.761720 0.465909
0.412764 0.759169 0.463806
0.545720 0.756652 0.461701
0.678673 0.754169 0.459594
0.801744 0.751879 0.457643
0.888168 0.750209 0.456277
0.974589 0.748572 0.454908
0.009039 0.853571 0.465263
0.141986 0.851194 0.463150
0.274933 0.848840 0.461036
0.407878 0.846507 0.458920
0.540822 0.844197 0.456804
0.673765 0.841908 0.454686
0.796826 0.839800 0.452725
0.883240 0.838301 0.451349
0.969652 0.836823 0.449971
0.004710 0.930945 0.460935
0.137654 0.928639 0.458818
0.270597 0.926354 0.456700
0.403538 0.924091 0.454580
0.536478 0.921851 0.452460
0.669417 0.919632 0.450338
0.792474 0.917594 0.448373
0.878884 0.916164 0.446993
0.965292 0.914756 0.445612
0.052745 0.060942 0.621357
0.185742 0.057688 0.619293
0.318737 0.054468 0.617227
0.451730 0.051282 0.615159
0.584721 0.048130 0.613090
0.717710 0.045012 0.611018
0.840817 0.042086 0.609103
0.927275 0.039780 0.607772
1.000000 0.037509 0.606439
0.046217 0.177632 0.614829
0.179208 0.174485 0.612759
0.312197 0.171373 0.610687
0.445184 0.168294 0.608613
0.578169 0.165250 0.606538
0.711152 0.162239 0.604460
0.834253 0.159421 0.602539
0.920705 0.157223 0.601202
1.000000 0.155059 0.599863
0.039670 0.294662 0.608282
0.172655 0.291623 0.606206
0.305638 0.288618 0.604128
0.438619 0.285647 0.602048
0.571598 0.282710 0.599967
0.704575 0.279807 0.597883
0.827670 0.277096 0.595956
0.914116 0.275005 0.594613
1.000000 0.272949 0.593268
0.033104 0.412031 0.601716
0.166083 0.409100 0.599634
0.299060 0.406202 0.597550
0.432035 0.403339 0.595465
0.565008 0.400509 0.593377
0.697979 0.397714 0.591287
0.821068 0.395110 0.589354
0.907508 0.393127 0.588005
0.993947 0.391178 0.586654
0.026519 0.529741 0.595131
0.159492 0.526917 0.593043
0.292463 0.524127 0.590954
0.425432 0.521371 0.588862
0.558399 0.518649 0.586768
0.691364 0.515961 0.584673
0.814447 0.513465 0.582733
0.900882 0.511589 0.581378
0.987314 0.509748 0.580021
0.019916 0.647790 0.588528
0.152882 0.645073 0.586434
0.285847 0.642391 0.584338
0.418810 0.639742 0.582240
0.551771 0.637127 0.580140
0.684730 0.634547 0.578039
0.807807 0.632159 0.576093
0.894236 0.630391 0.574732
0.980662 0.628657 0.573369
0.013293 0.766178 0.581905
0.146254 0.763569 0.579805
0.279212 0.760994 0.577703
0.412169 0.758453 0.575599
0.545124 0.755946 0.573493
0.678078 0.753473 0.571386
0.801148 0.751192 0.569434
0.887571 0.749532 0.568067
0.973991 0.747905 0.566698
0.008442 0.852897 0.577054
0.141389 0.850526 0.574940
0.274335 0.848178 0.572826
0.407280 0.845852 0.570710
0.540224 0.843547 0.568593
0.673166 0.841265 0.566474
0.796227 0.839164 0.564513
0.882640 0.837670 0.563137
0.969052 0.836199 0.561759
0.004112 0.930291 0.572724
0.137056 0.927990 0.570607
0.269998 0.925712 0.568488
0.402939 0.923455 0.566369
0.535879 0.921221 0.564248
0.668817 0.919009 0.562125
0.791874 0.916977 0.560160
0.878283 0.915554 0.558780
0.964691 0.914152 0.557398
0.052162 0.060015 0.733161
0.185158 0.056771 0.731097
0.318153 0.053561 0.729030
0.451145 0.050384 0.726962
0.584136 0.047242 0.724892
0.717124 0.044134 0.722820
0.840230 0.041217 0.720904
0.926689 0.038922 0.719573
1.000000 0.036660 0.718239
0.045632 0.176736 0.726632
0.178623 0.173599 0.724561
0.311611 0.170496 0.722489
0.444597 0.167428 0.720415
0.577582 0.164393 0.718338
0.710565 0.161392 0.716260
0.833665 0.158583 0.714339
0.920117 0.156395 0.713001
1.000000 0.154241 0.711662
0.039084 0.293797 0.720083
0.172068 0.290767 0.718007
0.305050 0.287772 0.715928
0.438031 0.284811 0.713848
0.571009 0.281883 0.711766
0.703986 0.278990 0.709682
0.827080 0.276289 0.707754
0.913526 0.274208 0.706410
0.999970 0.272161 0.705065
0.032516 0.411197 0.713516
0.165495 0.408275 0.711433
0.298471 0.405387 0.709349
0.431445 0.402534 0.707262
0.564418 0.399714 0.705174
0.697389 0.396928 0.703084
0.820477 0.394334 0.701150
0.906917 0.392361 0.699801
0.993355 0.390422 0.698449
0.025930 0.528937 0.706929
0.158902 0.526123 0.704841
0.291872 0.523342 0.702750
0.424841 0.520596 0.700658
0.557807 0.517884 0.698564
0.690772 0.515205 0.696468
0.813854 0.512719 0.694528
0.900288 0.510853 0.693172
0.986720 0.509022 0.691815
0.019324 0.647017 0.700324
0.152290 0.644310 0.698229
0.285255 0.641637 0.696133
0.418217 0.638998 0.694034
0.551178 0.636393 0.691934
0.684136 0.633823 0.689832
0.807212 0.631444 0.687886
0.893640 0.629686 0.686525
0.980066 0.627961 0.685161
0.012700 0.765436 0.693699
0.145660 0.762837 0.691598
0.278618 0.760271 0.689496
0.411575 0.757740 0.687392
0.544529 0.755243 0.685285
0.677482 0.752779 0.683177
0.800552 0.750508 0.681225
0.886974 0.748857 0.679858
0.973394 0.747241 0.678488
0.007845 0.852224 0.688844
0.140792 0.849860 0.686730
0.273737 0.847518 0.684615
0.406682 0.845198 0.682499
0.539625 0.842900 0.680382
0.672568 0.840624 0.678263
0.795628 0.838529 0.676301
0.882041 0.837042 0.674925
0.968452 0.835577 0.673547
0.003514 0.929638 0.684513
0.136457 0.927344 0.682396
0.269399 0.925071 0.680277
0.402340 0.922821 0.678157
0.535279 0.920593 0.676036
0.668217 0.918388 0.673913
0.791274 0.916362 0.671947
0.877683 0.914945 0.670567
0.964090 0.913550 0.669185
0.051601 0.059113 0.840891
0.184597 0.055879 0.838826
0.317590 0.052678 0.836759
0.450582 0.049512 0.834690
0.583572 0.046379 0.832620
0.716561 0.043280 0.830547
0.839666 0.040374 0.828631
0.926124 0.038088 0.827299
1.000000 0.035836 0.825965
0.045069 0.175865 0.834360
0.178059 0.172738 0.832289
0.311047 0.169645 0.830216
0.444033 0.166586 0.828141
0.577017 0.163561 0.826064
0.709999 0.160570 0.823986
0.833099 0.157771 0.822063
0.919550 0.155592 0.820725
1.000000 0.153447 0.819385
0.038519 0.292956 0.827810
0.171503 0.289937 0.825733
0.304485 0.286951 0.823654
0.437465 0.284000 0.821573
0.570443 0.281082 0.819490
0.703419 0.278198 0.817405
0.826512 0.275507 0.815477
0.912958 0.273436 0.814133
0.999402 0.271399 0.812787
0.031950 0.410387 0.821240
0.164928 0.407475 0.819157
0.297904 0.404597 0.817072
0.430877 0.401753 0.814986
0.563849 0.398943 0.812897
0.696820 0.396167 0.810806
0.819907 0.393583 0.808872
0.906347 0.391619 0.807522
0.992784 0.389690 0.806170
0.025362 0.528158 0.814652
0.158333 0.525353 0.812563
0.291303 0.522583 0.810472
0.424271 0.519846 0.808379
0.557237 0.517144 0.806284
0.690201 0.514475 0.804188
0.813283 0.511999 0.802247
0.899716 0.510143 0.800891
0.986148 0.508320 0.799533
0.018754 0.646268 0.808045
0.151720 0.643571 0.805950
0.284684 0.640908 0.803853
0.417646 0.638279 0.801754
0.550606 0.635684 0.799653
0.683564 0.633123 0.797550
0.806639 0.630754 0.795604
0.893067 0.629005 0.794242
0.979492 0.627291 0.792878
0.012128 0.764718 0.801419
0.145088 0.762129 0.799317
0.278046 0.759573 0.797214
0.411002 0.757052 0.795110
0.543955 0.754564 0.793003
0.676908 0.752110 0.790894
0.799977 0.749849 0.788942
0.886399 0.748208 0.787574
0.972818 0.746601 0.786204
0.007269 0.851575 0.796560
0.140216 0.849217 0.794446
0.273162 0.846881 0.792330
0.406106 0.844567 0.790214
0.539049 0.842276 0.788096
0.671991 0.840007 0.785977
0.795050 0.837917 0.784015
0.881463 0.836437 0.782638
0.967874 0.834978 0.781260
0.002938 0.929009 0.792228
0.135880 0.926721 0.790110
0.268822 0.924455 0.787991
0.401762 0.922211 0.785870
0.534701 0.919989 0.783749
0.667639 0.917790 0.781626
0.790695 0.915771 0.779660
0.877104 0.914360 0.778279
0.963511 0.912971 0.776897
0.051228 0.058403 0.913570
0.184223 0.055178 0.911505
0.317216 0.051987 0.909437
0.450208 0.048830 0.907368
0.583197 0.045707 0.905297
0.716185 0.042618 0.903223
0.839290 0.039722 0.901306
0.925747 0.037445 0.899974
1.000000 0.035203 0.898640
0.044695 0.175185 0.907037
0.177684 0.172068 0.904966
0.310671 0.168984 0.902892
0.443657 0.165935 0.900817
0.576640 0.162920 0.898740
0.709622 0.159938 0.896660
0.832721 0.157149 0.894737
0.919172 0.154980 0.893399
1.000000 0.152845 0.892058
0.038143 0.292307 0.900485
0.171126 0.289297 0.898408
0.304107 0.286321 0.896328
0.437087 0.283380 0.894247
0.570064 0.280472 0.892164
0.703040 0.277598 0.890078
0.826133 0.274916 0.888149
0.912578 0.272855 0.886805
0.999021 0.270827 0.885458
0.031572 0.409769 0.893914
0.164549 0.406867 0.891831
0.297524 0.403998 0.889745
0.430498 0.401164 0.887658
0.563469 0.398363 0.885569
0.696439 0.395597 0.883477
0.819526 0.393023 0.881542
0.905965 0.391069 0.880192
0.992402 0.389149 0.878839
0.024982 0.527570 0.887324
0.157953 0.524775 0.885235
0.290922 0.522014 0.883143
0.423890 0.519288 0.881050
0.556855 0.516595 0.878954
0.689819 0.513936 0.876857
0.812900 0.511469 0.874916
0.899333 0.509623 0.873560
0.985764 0.507810 0.872201
0.018373 0.645711 0.880715
0.151338 0.643024 0.878620
0.284301 0.640371 0.876522
0.417263 0.637751 0.874423
0.550222 0.635166 0.872321
0.683180 0.632614 0.870218
0.806255 0.630255 0.868271
0.892682 0.628516 0.866909
0.979107 0.626811 0.865544
0.011745 0.764192 0.874087
0.144704 0.761612 0.871986
0.277661 0.759066 0.869882
0.410617 0.756554 0.867777
0.543570 0.754076 0.865669
0.676522 0.751633 0.863560
0.799591 0.749381 0.861607
0.886012 0.747750 0.860239
0.972431 0.746152 0.858868
0.006882 0.851116 0.869225
0.139829 0.848764 0.867110
0.272774 0.846435 0.864995
0.405718 0.844127 0.862878
0.538660 0.841842 0.860760
0.671602 0.839579 0.858640
0.794661 0.837496 0.856678
0.881074 0.836022 0.855300
0.967484 0.834570 0.853922
0.002550 0.928570 0.864892
0.135492 0.926288 0.862773
0.268433 0.924029 0.860654
0.401373 0.921791 0.858533
0.534312 0.919576 0.856411
0.667249 0.917383 0.854288
0.790305 0.915370 0.852321
0.876713 0.913965 0.850940
0.963120 0.912580 0.849558
