assets/luts/super8_kodak_01.cube
# Generated by scripts/generateLuts.mjs — super8_kodak_01
TITLE "super8_kodak_01"
LUT_3D_SIZE 5
0.055657 0.065616 0.062331
0.321654 0.059045 0.058207
0.587644 0.052609 0.054075
0.843745 0.046468 0.050094
1.000000 0.041794 0.047435
0.042599 0.299029 0.049274
0.308572 0.292888 0.045125
0.574538 0.286882 0.040969
0.830615 0.281171 0.036964
1.000000 0.276927 0.034282
0.029466 0.533801 0.036140
0.295415 0.528089 0.031968
0.561356 0.522514 0.027788
0.817410 0.517233 0.023758
0.990282 0.513419 0.021052
0.016256 0.769931 0.022931
0.282181 0.764650 0.018734
0.548099 0.759505 0.014530
0.804128 0.754654 0.010477
0.976977 0.751269 0.007746
0.007101 0.933582 0.013776
0.272991 0.928940 0.009544
0.538875 0.924386 0.005306
0.794874 0.920079 0.001222
0.967695 0.917191 0.000000
0.054492 0.063738 0.285942
0.320487 0.057205 0.281815
0.586475 0.050809 0.277681
0.842574 0.044707 0.273698
1.000000 0.040072 0.271037
0.041428 0.297274 0.272877
0.307399 0.291171 0.268727
0.573362 0.285205 0.264569
0.829438 0.279533 0.260561
1.000000 0.275327 0.257877
0.028288 0.532168 0.259737
0.294235 0.526496 0.255563
0.560174 0.520960 0.251380
0.816225 0.515717 0.247349
0.989095 0.511942 0.244640
0.015071 0.768422 0.246521
0.280994 0.763179 0.242322
0.546910 0.758073 0.238116
0.802937 0.753261 0.234060
0.975783 0.749915 0.231328
0.005906 0.932260 0.237355
0.271794 0.927643 0.233122
0.537677 0.923115 0.228883
0.793674 0.918833 0.224798
0.966494 0.915970 0.222038
0.053327 0.061871 0.509552
0.319320 0.055377 0.505423
0.585306 0.049020 0.501287
0.841403 0.042957 0.497301
1.000000 0.038360 0.494639
0.040256 0.295530 0.496481
0.306225 0.289466 0.492328
0.572186 0.283539 0.488168
0.828259 0.277905 0.484158
1.000000 0.273739 0.481471
0.027109 0.530547 0.483333
0.293054 0.524914 0.479157
0.558991 0.519416 0.474972
0.815040 0.514213 0.470938
0.987908 0.510476 0.468228
0.013886 0.766923 0.470110
0.279807 0.761720 0.465909
0.545720 0.756652 0.461701
0.801744 0.751879 0.457643
0.974589 0.748572 0.454908
0.004710 0.930945 0.460935
0.270597 0.926354 0.456700
0.536478 0.921851 0.452460
0.792474 0.917594 0.448373
0.965292 0.914756 0.445612
0.052162 0.060015 0.733161
0.318153 0.053561 0.729030
0.584136 0.047242 0.724892
0.840230 0.041217 0.720904
1.000000 0.036660 0.718239
0.039084 0.293797 0.720083
0.305050 0.287772 0.715928
0.571009 0.281883 0.711766
0.827080 0.276289 0.707754
0.999970 0.272161 0.705065
0.025930 0.528937 0.706929
0.291872 0.523342 0.702750
0.557807 0.517884 0.698564
0.813854 0.512719 0.694528
0.986720 0.509022 0.691815
0.012700 0.765436 0.693699
0.278618 0.760271 0.689496
0.544529 0.755243 0.685285
0.800552 0.750508 0.681225
0.973394 0.747241 0.678488
0.003514 0.929638 0.684513
0.269399 0.925071 0.680277
0.535279 0.920593 0.676036
0.791274 0.916362 0.671947
0.964090 0.913550 0.669185
0.051228 0.058403 0.913570
0.317216 0.051987 0.909437
0.583197 0.045707 0.905297
0.839290 0.039722 0.901306
1.000000 0.035203 0.898640
0.038143 0.292307 0.900485
0.304107 0.286321 0.896328
0.570064 0.280472 0.892164
0.826133 0.274916 0.888149
0.999021 0.270827 0.885458
0.024982 0.527570 0.887324
0.290922 0.522014 0.883143
0.556855 0.516595 0.878954
0.812900 0.511469 0.874916
0.985764 0.507810 0.872201
0.011745 0.764192 0.874087
0.277661 0.759066 0.869882
0.543570 0.754076 0.865669
0.799591 0.749381 0.861607
0.972431 0.746152 0.858868
0.002550 0.928570 0.864892
0.268433 0.924029 0.860654
0.534312 0.919576 0.856411
0.790305 0.915370 0.852321
0.963120 0.912580 0.849558
