assets/luts/super8_kodak_01.cube
# Generated by scripts/generateLuts.mjs — super8_kodak_01
TITLE "super8_kodak_01"
LUT_3D_SIZE 33
0.055657 0.065616 0.062331
0.088907 0.064787 0.061816
0.122157 0.063960 0.061301
0.155407 0.063136 0.060785
0.188656 0.062313 0.060270
0.221906 0.061493 0.059754
0.255155 0.060675 0.059239
0.288405 0.059859 0.058723
0.321654 0.059045 0.058207
0.354903 0.058233 0.057691
0.388152 0.057423 0.057175
0.421401 0.056615 0.056658
0.454650 0.055810 0.056142
0.487898 0.055007 0.055625
0.521147 0.054205 0.055109
0.554395 0.053406 0.054592
0.587644 0.052609 0.054075
0.620892 0.051814 0.053558
0.654140 0.051022 0.053041
0.687388 0.050231 0.052524
0.720635 0.049443 0.052006
0.753883 0.048656 0.051489
0.787131 0.047872 0.050971
0.820378 0.047090 0.050453
0.843745 0.046468 0.050094
0.865360 0.045877 0.049762
0.886976 0.045287 0.049430
0.908591 0.044699 0.049098
0.930206 0.044114 0.048765
0.951821 0.043531 0.048433
0.973436 0.042950 0.048101
0.995051 0.042371 0.047768
1.000000 0.041794 0.047435
0.054029 0.094718 0.060703
0.087278 0.093896 0.060188
0.120528 0.093076 0.059672
0.153777 0.092258 0.059156
0.187027 0.091442 0.058640
0.220276 0.090629 0.058124
0.253525 0.089817 0.057608
0.286774 0.089008 0.057092
0.320023 0.088201 0.056576
0.353272 0.087396 0.056059
0.386520 0.086592 0.055543
0.419769 0.085792 0.055026
0.453017 0.084993 0.054509
0.486265 0.084196 0.053992
0.519514 0.083402 0.053475
0.552762 0.082609 0.052958
0.586009 0.081819 0.052441
0.619257 0.081031 0.051923
0.652505 0.080245 0.051406
0.685753 0.079461 0.050888
0.719000 0.078679 0.050371
0.752247 0.077900 0.049853
0.785494 0.077122 0.049335
0.818742 0.076347 0.048817
0.842108 0.075732 0.048456
0.863723 0.075147 0.048124
0.885338 0.074564 0.047792
0.906953 0.073983 0.047459
0.928568 0.073405 0.047127
0.950182 0.072828 0.046794
0.971797 0.072254 0.046461
0.993411 0.071681 0.046128
1.000000 0.071111 0.045795
0.052399 0.123842 0.059074
0.085649 0.123026 0.058558
0.118898 0.122213 0.058042
0.152147 0.121402 0.057526
0.185396 0.120593 0.057010
0.218645 0.119786 0.056493
0.251894 0.118981 0.055977
0.285142 0.118178 0.055460
0.318391 0.117378 0.054944
0.351639 0.116580 0.054427
0.384887 0.115783 0.053910
0.418135 0.114989 0.053393
0.451383 0.114197 0.052876
0.484631 0.113407 0.052358
0.517879 0.112619 0.051841
0.551127 0.111834 0.051323
0.584374 0.111050 0.050806
0.617622 0.110269 0.050288
0.650869 0.109490 0.049770
0.684116 0.108712 0.049252
0.717363 0.107937 0.048734
0.750610 0.107164 0.048216
0.783857 0.106394 0.047697
0.817104 0.105625 0.047179
0.840470 0.105017 0.046818
0.862084 0.104438 0.046486
0.883699 0.103862 0.046153
0.905314 0.103288 0.045820
0.926928 0.102716 0.045487
0.948542 0.102146 0.045154
0.970156 0.101579 0.044821
0.991770 0.101013 0.044487
1.000000 0.100450 0.044154
0.050769 0.152987 0.057443
0.084018 0.152178 0.056927
0.117267 0.151371 0.056411
0.150516 0.150567 0.055894
0.183764 0.149765 0.055378
0.217013 0.148964 0.054861
0.250261 0.148166 0.054344
0.283509 0.147370 0.053827
0.316757 0.146576 0.053310
0.350005 0.145785 0.052793
0.383253 0.144995 0.052276
0.416501 0.144208 0.051758
0.449749 0.143422 0.051241
0.482996 0.142639 0.050723
0.516243 0.141858 0.050205
0.549491 0.141079 0.049687
0.582738 0.140302 0.049169
0.615985 0.139528 0.048651
0.649232 0.138755 0.048133
0.682479 0.137985 0.047614
0.715725 0.137217 0.047096
0.748972 0.136450 0.046577
0.782218 0.135686 0.046059
0.815465 0.134924 0.045540
0.838830 0.134323 0.045179
0.860445 0.133751 0.044846
0.882059 0.133182 0.044513
0.903673 0.132614 0.044179
0.925287 0.132049 0.043846
0.946901 0.131486 0.043513
0.968515 0.130925 0.043179
0.990128 0.130366 0.042845
1.000000 0.129810 0.042512
0.049137 0.182153 0.055812
0.082386 0.181351 0.055295
0.115634 0.180551 0.054778
0.148883 0.179753 0.054262
0.182131 0.178957 0.053745
0.215379 0.178164 0.053228
0.248627 0.177373 0.052710
0.281875 0.176583 0.052193
0.315123 0.175796 0.051676
0.348370 0.175011 0.051158
0.381618 0.174228 0.050640
0.414865 0.173448 0.050122
0.448112 0.172669 0.049605
0.481360 0.171893 0.049087
0.514607 0.171118 0.048568
0.547853 0.170346 0.048050
0.581100 0.169576 0.047532
0.614347 0.168808 0.047013
0.647593 0.168042 0.046494
0.680840 0.167278 0.045976
0.714086 0.166517 0.045457
0.747332 0.165757 0.044938
0.780578 0.165000 0.044419
0.813824 0.164245 0.043899
0.837190 0.163650 0.043538
0.858804 0.163085 0.043205
0.880417 0.162522 0.042871
0.902031 0.161962 0.042538
0.923645 0.161403 0.042204
0.945258 0.160847 0.041870
0.966872 0.160293 0.041536
0.988485 0.159741 0.041202
1.000000 0.159191 0.040868
0.047505 0.211340 0.054179
0.080753 0.210545 0.053662
0.114001 0.209751 0.053145
0.147249 0.208960 0.052628
0.180497 0.208172 0.052110
0.213744 0.207385 0.051593
0.246992 0.206600 0.051075
0.280240 0.205818 0.050558
0.313487 0.205037 0.050040
0.346734 0.204259 0.049522
0.379981 0.203483 0.049004
0.413228 0.202709 0.048486
0.446475 0.201937 0.047967
0.479722 0.201167 0.047449
0.512969 0.200400 0.046930
0.546215 0.199634 0.046412
0.579461 0.198871 0.045893
0.612708 0.198110 0.045374
0.645954 0.197350 0.044855
0.679200 0.196593 0.044336
0.712446 0.195839 0.043817
0.745692 0.195086 0.043297
0.778937 0.194335 0.042778
0.812183 0.193587 0.042258
0.835548 0.192998 0.041896
0.857161 0.192440 0.041563
0.878775 0.191884 0.041229
0.900388 0.191330 0.040895
0.922002 0.190779 0.040561
0.943615 0.190229 0.040227
0.965228 0.189682 0.039892
0.986841 0.189136 0.039558
1.000000 0.188593 0.039223
0.045871 0.240548 0.052545
0.079119 0.239760 0.052028
0.112366 0.238973 0.051510
0.145614 0.238189 0.050993
0.178861 0.237407 0.050475
0.212109 0.236627 0.049957
0.245356 0.235849 0.049439
0.278603 0.235073 0.048921
0.311850 0.234299 0.048403
0.345097 0.233528 0.047884
0.378344 0.232759 0.047366
0.411590 0.231991 0.046847
0.444837 0.231226 0.046329
0.478083 0.230463 0.045810
0.511329 0.229702 0.045291
0.544575 0.228943 0.044772
0.577821 0.228187 0.044253
0.611067 0.227432 0.043734
0.644313 0.226680 0.043214
0.677559 0.225930 0.042695
0.710804 0.225181 0.042175
0.744050 0.224435 0.041655
0.777295 0.223691 0.041135
0.810540 0.222950 0.040615
0.833905 0.222368 0.040253
0.855518 0.221817 0.039919
0.877131 0.221267 0.039585
0.898744 0.220720 0.039251
0.920357 0.220175 0.038916
0.941970 0.219632 0.038582
0.963583 0.219092 0.038247
0.985195 0.218553 0.037912
1.000000 0.218016 0.037577
0.044236 0.269778 0.050910
0.077483 0.268996 0.050392
0.110730 0.268217 0.049874
0.143978 0.267439 0.049356
0.177225 0.266663 0.048838
0.210472 0.265890 0.048320
0.243718 0.265119 0.047802
0.276965 0.264350 0.047283
0.310212 0.263583 0.046765
0.343458 0.262818 0.046246
0.376705 0.262055 0.045727
0.409951 0.261295 0.045208
0.443197 0.260536 0.044689
0.476443 0.259780 0.044170
0.509689 0.259026 0.043651
0.542935 0.258274 0.043131
0.576180 0.257524 0.042612
0.609426 0.256776 0.042092
0.642671 0.256030 0.041572
0.675917 0.255287 0.041052
0.709162 0.254545 0.040532
0.742407 0.253806 0.040012
0.775652 0.253069 0.039492
0.808897 0.252334 0.038972
0.832261 0.251759 0.038609
0.853873 0.251214 0.038275
0.875486 0.250672 0.037940
0.897099 0.250131 0.037605
0.918711 0.249593 0.037271
0.940324 0.249057 0.036936
0.961936 0.248523 0.036601
0.983548 0.247991 0.036265
1.000000 0.247461 0.035930
0.042599 0.299029 0.049274
0.075846 0.298254 0.048756
0.109093 0.297481 0.048237
0.142340 0.296710 0.047719
0.175587 0.295941 0.047200
0.208833 0.295175 0.046682
0.242080 0.294410 0.046163
0.275326 0.293648 0.045644
0.308572 0.292888 0.045125
0.341819 0.292130 0.044606
0.375065 0.291374 0.044087
0.408310 0.290620 0.043568
0.441556 0.289868 0.043048
0.474802 0.289118 0.042529
0.508047 0.288371 0.042009
0.541293 0.287626 0.041489
0.574538 0.286882 0.040969
0.607783 0.286141 0.040449
0.641028 0.285402 0.039929
0.674273 0.284666 0.039409
0.707518 0.283931 0.038889
0.740763 0.283198 0.038368
0.774007 0.282468 0.037847
0.807252 0.281739 0.037327
0.830615 0.281171 0.036964
0.852228 0.280633 0.036629
0.873840 0.280098 0.036294
0.895452 0.279564 0.035959
0.917065 0.279032 0.035624
0.938677 0.278503 0.035288
0.960288 0.277975 0.034953
0.981900 0.277450 0.034617
1.000000 0.276927 0.034282
0.040962 0.328301 0.047636
0.074208 0.327533 0.047118
0.107455 0.326766 0.046599
0.140701 0.326002 0.046080
0.173948 0.325240 0.045561
0.207194 0.324480 0.045042
0.240440 0.323723 0.044523
0.273686 0.322967 0.044004
0.306932 0.322214 0.043485
0.340178 0.321462 0.042965
0.373423 0.320713 0.042446
0.406669 0.319966 0.041926
0.439914 0.319221 0.041406
0.473159 0.318478 0.040886
0.506404 0.317737 0.040366
0.539650 0.316999 0.039846
0.572894 0.316262 0.039326
0.606139 0.315528 0.038805
0.639384 0.314795 0.038285
0.672628 0.314065 0.037764
0.705873 0.313337 0.037243
0.739117 0.312611 0.036723
0.772361 0.311888 0.036202
0.805605 0.311166 0.035680
0.828969 0.310605 0.035317
0.850581 0.310073 0.034982
0.872193 0.309544 0.034647
0.893805 0.309017 0.034311
0.915416 0.308492 0.033976
0.937028 0.307970 0.033640
0.958640 0.307449 0.033304
0.980251 0.306931 0.032968
1.000000 0.306414 0.032632
0.039323 0.357595 0.045997
0.072569 0.356833 0.045479
0.105815 0.356073 0.044960
0.139062 0.355316 0.044440
0.172308 0.354561 0.043921
0.205553 0.353807 0.043402
0.238799 0.353056 0.042882
0.272045 0.352307 0.042363
0.305290 0.351561 0.041843
0.338536 0.350816 0.041323
0.371781 0.350074 0.040803
0.405026 0.349333 0.040283
0.438271 0.348595 0.039763
0.471516 0.347859 0.039243
0.504761 0.347125 0.038722
0.538005 0.346393 0.038202
0.571250 0.345663 0.037681
0.604494 0.344935 0.037160
0.637738 0.344210 0.036639
0.670983 0.343486 0.036118
0.704227 0.342765 0.035597
0.737471 0.342046 0.035076
0.770714 0.341329 0.034555
0.803958 0.340614 0.034033
0.827321 0.340059 0.033670
0.848933 0.339535 0.033334
0.870544 0.339012 0.032998
0.892156 0.338492 0.032662
0.913767 0.337974 0.032326
0.935379 0.337458 0.031990
0.956990 0.336944 0.031654
0.978601 0.336432 0.031318
1.000000 0.335923 0.030981
0.037683 0.386909 0.044357
0.070929 0.386154 0.043838
0.104175 0.385401 0.043319
0.137421 0.384651 0.042799
0.170666 0.383902 0.042280
0.203912 0.383156 0.041760
0.237157 0.382411 0.041240
0.270402 0.381669 0.040720
0.303647 0.380929 0.040200
0.336892 0.380191 0.039680
0.370137 0.379455 0.039160
0.403382 0.378722 0.038639
0.436626 0.377990 0.038119
0.469871 0.377261 0.037598
0.503115 0.376533 0.037077
0.536360 0.375808 0.036556
0.569604 0.375085 0.036035
0.602848 0.374364 0.035514
0.636092 0.373645 0.034993
0.669336 0.372929 0.034471
0.702579 0.372214 0.033950
0.735823 0.371502 0.033428
0.769066 0.370791 0.032906
0.802309 0.370083 0.032385
0.825672 0.369535 0.032021
0.847283 0.369017 0.031685
0.868895 0.368502 0.031349
0.890506 0.367988 0.031012
0.912117 0.367477 0.030676
0.933728 0.366967 0.030340
0.955339 0.366460 0.030003
0.976949 0.365955 0.029666
0.998560 0.365452 0.029329
0.036042 0.416245 0.042716
0.069288 0.415497 0.042197
0.102533 0.414751 0.041677
0.135778 0.414007 0.041157
0.169024 0.413265 0.040637
0.202269 0.412525 0.040117
0.235514 0.411788 0.039597
0.268758 0.411052 0.039076
0.302003 0.410319 0.038556
0.335248 0.409587 0.038035
0.368492 0.408858 0.037515
0.401737 0.408131 0.036994
0.434981 0.407407 0.036473
0.468225 0.406684 0.035952
0.501469 0.405963 0.035431
0.534713 0.405245 0.034909
0.567957 0.404528 0.034388
0.601200 0.403814 0.033867
0.634444 0.403102 0.033345
0.667687 0.402392 0.032823
0.700931 0.401684 0.032301
0.734174 0.400979 0.031779
0.767417 0.400275 0.031257
0.800660 0.399574 0.030735
0.824022 0.399032 0.030371
0.845633 0.398521 0.030034
0.867244 0.398012 0.029698
0.888855 0.397505 0.029361
0.910465 0.397001 0.029024
0.932076 0.396498 0.028688
0.953686 0.395998 0.028351
0.975296 0.395499 0.028013
0.996907 0.395003 0.027676
0.034400 0.445602 0.041074
0.067645 0.444861 0.040554
0.100890 0.444121 0.040034
0.134135 0.443384 0.039514
0.167380 0.442649 0.038993
0.200624 0.441916 0.038473
0.233869 0.441185 0.037952
0.267114 0.440456 0.037432
0.300358 0.439730 0.036911
0.333602 0.439005 0.036390
0.366846 0.438283 0.035869
0.400090 0.437562 0.035348
0.433334 0.436844 0.034826
0.466578 0.436128 0.034305
0.499821 0.435414 0.033783
0.533065 0.434703 0.033262
0.566308 0.433993 0.032740
0.599552 0.433286 0.032218
0.632795 0.432580 0.031696
0.666038 0.431877 0.031174
0.699281 0.431176 0.030651
0.732524 0.430477 0.030129
0.765766 0.429780 0.029607
0.799009 0.429085 0.029084
0.822371 0.428551 0.028719
0.843981 0.428046 0.028383
0.865592 0.427544 0.028046
0.887202 0.427044 0.027709
0.908812 0.426546 0.027372
0.930423 0.426050 0.027034
0.952033 0.425556 0.026697
0.973643 0.425065 0.026360
0.995252 0.424575 0.026022
0.032756 0.474980 0.039431
0.066001 0.474246 0.038910
0.099246 0.473513 0.038390
0.132490 0.472782 0.037869
0.165735 0.472054 0.037348
0.198979 0.471328 0.036828
0.232223 0.470604 0.036307
0.265467 0.469881 0.035785
0.298711 0.469162 0.035264
0.331955 0.468444 0.034743
0.365199 0.467728 0.034221
0.398443 0.467015 0.033700
0.431686 0.466303 0.033178
0.464929 0.465594 0.032656
0.498173 0.464887 0.032135
0.531416 0.464182 0.031612
0.564659 0.463479 0.031090
0.597902 0.462778 0.030568
0.631145 0.462079 0.030046
0.664387 0.461383 0.029523
0.697630 0.460688 0.029000
0.730872 0.459996 0.028478
0.764115 0.459306 0.027955
0.797357 0.458618 0.027432
0.820718 0.458090 0.027067
0.842328 0.457593 0.026730
0.863939 0.457097 0.026392
0.885549 0.456604 0.026055
0.907158 0.456112 0.025718
0.928768 0.455623 0.025380
0.950378 0.455136 0.025042
0.971987 0.454651 0.024704
0.993597 0.454169 0.024366
0.031112 0.504380 0.037786
0.064356 0.503652 0.037265
0.097600 0.502926 0.036744
0.130845 0.502202 0.036223
0.164089 0.501480 0.035702
0.197333 0.500761 0.035181
0.230576 0.500043 0.034660
0.263820 0.499328 0.034138
0.297064 0.498615 0.033617
0.330307 0.497904 0.033095
0.363551 0.497195 0.032573
0.396794 0.496488 0.032051
0.430037 0.495783 0.031529
0.463280 0.495081 0.031007
0.496523 0.494380 0.030485
0.529766 0.493682 0.029962
0.563008 0.492986 0.029440
0.596251 0.492292 0.028917
0.629493 0.491600 0.028394
0.662735 0.490910 0.027871
0.695978 0.490222 0.027348
0.729220 0.489537 0.026825
0.762462 0.488853 0.026302
0.795703 0.488172 0.025779
0.819064 0.487651 0.025413
0.840674 0.487160 0.025076
0.862284 0.486671 0.024738
0.883894 0.486185 0.024400
0.905503 0.485700 0.024062
0.927113 0.485218 0.023724
0.948722 0.484737 0.023386
0.970331 0.484259 0.023048
0.991940 0.483783 0.022710
0.029466 0.533801 0.036140
0.062710 0.533079 0.035619
0.095954 0.532360 0.035098
0.129198 0.531643 0.034576
0.162441 0.530928 0.034055
0.195685 0.530215 0.033533
0.228928 0.529504 0.033012
0.262172 0.528796 0.032490
0.295415 0.528089 0.031968
0.328658 0.527385 0.031446
0.361901 0.526683 0.030923
0.395144 0.525983 0.030401
0.428387 0.525285 0.029879
0.461629 0.524589 0.029356
0.494872 0.523895 0.028833
0.528114 0.523204 0.028311
0.561356 0.522514 0.027788
0.594599 0.521827 0.027265
0.627841 0.521142 0.026742
0.661082 0.520459 0.026218
0.694324 0.519778 0.025695
0.727566 0.519099 0.025171
0.760808 0.518422 0.024648
0.794049 0.517747 0.024124
0.817410 0.517233 0.023758
0.839019 0.516749 0.023420
0.860628 0.516267 0.023082
0.882238 0.515787 0.022744
0.903847 0.515309 0.022406
0.925456 0.514833 0.022068
0.947065 0.514360 0.021729
0.968674 0.513888 0.021391
0.990282 0.513419 0.021052
0.027819 0.563243 0.034493
0.061062 0.562528 0.033972
0.094306 0.561816 0.033450
0.127549 0.561105 0.032928
0.160793 0.560397 0.032406
0.194036 0.559691 0.031884
0.227279 0.558987 0.031362
0.260522 0.558285 0.030840
0.293765 0.557585 0.030318
0.327008 0.556888 0.029795
0.360250 0.556192 0.029273
0.393493 0.555499 0.028750
0.426735 0.554807 0.028227
0.459977 0.554118 0.027704
0.493219 0.553431 0.027181
0.526461 0.552746 0.026658
0.559703 0.552064 0.026135
0.592945 0.551383 0.025611
0.626187 0.550705 0.025088
0.659428 0.550028 0.024564
0.692670 0.549354 0.024040
0.725911 0.548682 0.023516
0.759152 0.548012 0.022992
0.792393 0.547344 0.022468
0.815754 0.546836 0.022102
0.837363 0.546359 0.021764
0.858972 0.545883 0.021426
0.880581 0.545410 0.021087
0.902189 0.544939 0.020748
0.923798 0.544470 0.020410
0.945407 0.544003 0.020071
0.967015 0.543538 0.019732
0.988623 0.543076 0.019393
0.026171 0.592706 0.032845
0.059414 0.591998 0.032323
0.092657 0.591292 0.031801
0.125900 0.590589 0.031279
0.159143 0.589887 0.030757
0.192386 0.589188 0.030234
0.225629 0.588490 0.029712
0.258871 0.587795 0.029189
0.292114 0.587102 0.028667
0.325356 0.586411 0.028144
0.358598 0.585722 0.027621
0.391840 0.585036 0.027098
0.425082 0.584351 0.026574
0.458324 0.583669 0.026051
0.491566 0.582989 0.025528
0.524808 0.582310 0.025004
0.558049 0.581634 0.024481
0.591291 0.580960 0.023957
0.624532 0.580289 0.023433
0.657773 0.579619 0.022909
0.691014 0.578952 0.022385
0.724255 0.578286 0.021860
0.757496 0.577623 0.021336
0.790736 0.576962 0.020812
0.814096 0.576461 0.020445
0.835705 0.575990 0.020106
0.857314 0.575521 0.019768
0.878922 0.575055 0.019429
0.900531 0.574590 0.019090
0.922139 0.574128 0.018751
0.943747 0.573668 0.018411
0.965355 0.573210 0.018072
0.986963 0.572754 0.017733
0.024521 0.622190 0.031196
0.057764 0.621489 0.030673
0.091007 0.620790 0.030151
0.124250 0.620093 0.029628
0.157492 0.619398 0.029106
0.190735 0.618706 0.028583
0.223977 0.618015 0.028060
0.257219 0.617327 0.027537
0.290461 0.616640 0.027014
0.323703 0.615956 0.026491
0.356945 0.615274 0.025968
0.390187 0.614594 0.025444
0.423428 0.613916 0.024921
0.456670 0.613241 0.024397
0.489911 0.612567 0.023873
0.523153 0.611896 0.023349
0.556394 0.611226 0.022825
0.589635 0.610559 0.022301
0.622876 0.609894 0.021777
0.656116 0.609231 0.021252
0.689357 0.608570 0.020728
0.722598 0.607912 0.020203
0.755838 0.607255 0.019678
0.789078 0.606601 0.019153
0.812438 0.606107 0.018787
0.834046 0.605642 0.018448
0.855655 0.605181 0.018108
0.877263 0.604721 0.017769
0.898871 0.604263 0.017430
0.920479 0.603807 0.017090
0.942086 0.603354 0.016751
0.963694 0.602903 0.016411
0.985302 0.602454 0.016071
0.022871 0.651696 0.029545
0.056113 0.651002 0.029022
0.089356 0.650309 0.028500
0.122598 0.649619 0.027977
0.155840 0.648931 0.027454
0.189082 0.648245 0.026931
0.222324 0.647561 0.026407
0.255566 0.646879 0.025884
0.288808 0.646200 0.025361
0.322049 0.645522 0.024837
0.355291 0.644847 0.024313
0.388532 0.644174 0.023789
0.421773 0.643503 0.023265
0.455014 0.642834 0.022741
0.488255 0.642167 0.022217
0.521496 0.641502 0.021693
0.554737 0.640840 0.021168
0.587978 0.640179 0.020644
0.621218 0.639521 0.020119
0.654459 0.638865 0.019595
0.687699 0.638210 0.019070
0.720939 0.637558 0.018545
0.754179 0.636909 0.018019
0.787419 0.636261 0.017494
0.810778 0.635773 0.017127
0.832386 0.635316 0.016788
0.853994 0.634861 0.016448
0.875602 0.634408 0.016108
0.897210 0.633957 0.015769
0.918817 0.633508 0.015429
0.940424 0.633061 0.015089
0.962032 0.632617 0.014749
0.983639 0.632174 0.014409
0.021219 0.681223 0.027893
0.054461 0.680535 0.027370
0.087703 0.679850 0.026847
0.120945 0.679166 0.026324
0.154187 0.678485 0.025800
0.187428 0.677805 0.025277
0.220670 0.677128 0.024753
0.253911 0.676453 0.024230
0.287153 0.675780 0.023706
0.320394 0.675110 0.023182
0.353635 0.674441 0.022658
0.386876 0.673775 0.022133
0.420117 0.673110 0.021609
0.453358 0.672448 0.021085
0.486598 0.671788 0.020560
0.519839 0.671130 0.020035
0.553079 0.670474 0.019511
0.586320 0.669820 0.018986
0.619560 0.669169 0.018461
0.652800 0.668519 0.017936
0.686040 0.667872 0.017410
0.719279 0.667226 0.016885
0.752519 0.666583 0.016359
0.785759 0.665942 0.015834
0.809118 0.665462 0.015466
0.830725 0.665011 0.015126
0.852333 0.664563 0.014787
0.873940 0.664116 0.014447
0.895547 0.663672 0.014106
0.917154 0.663230 0.013766
0.938761 0.662790 0.013426
0.960368 0.662352 0.013085
0.981975 0.661916 0.012745
0.019566 0.710771 0.026240
0.052808 0.710090 0.025717
0.086049 0.709411 0.025193
0.119291 0.708734 0.024670
0.152532 0.708060 0.024146
0.185774 0.707387 0.023622
0.219015 0.706717 0.023098
0.252256 0.706049 0.022574
0.285497 0.705382 0.022050
0.318738 0.704718 0.021525
0.351978 0.704056 0.021001
0.385219 0.703397 0.020476
0.418460 0.702739 0.019952
0.451700 0.702083 0.019427
0.484940 0.701430 0.018902
0.518180 0.700779 0.018377
0.551420 0.700130 0.017852
0.584660 0.699483 0.017326
0.617900 0.698838 0.016801
0.651140 0.698195 0.016275
0.684379 0.697554 0.015750
0.717619 0.696916 0.015224
0.750858 0.696279 0.014698
0.784097 0.695645 0.014172
0.807456 0.695171 0.013804
0.829063 0.694727 0.013464
0.850670 0.694285 0.013124
0.872277 0.693846 0.012783
0.893884 0.693408 0.012443
0.915491 0.692973 0.012102
0.937097 0.692539 0.011762
0.958704 0.692108 0.011421
0.980310 0.691679 0.011080
0.017912 0.740341 0.024586
0.051153 0.739666 0.024062
0.084394 0.738994 0.023538
0.117636 0.738324 0.023014
0.150877 0.737656 0.022490
0.184118 0.736990 0.021966
0.217358 0.736326 0.021442
0.250599 0.735665 0.020917
0.283840 0.735005 0.020393
0.317080 0.734348 0.019868
0.350321 0.733693 0.019343
0.383561 0.733040 0.018818
0.416801 0.732389 0.018293
0.450041 0.731740 0.017768
0.483281 0.731093 0.017243
0.516521 0.730449 0.016717
0.549760 0.729806 0.016192
0.583000 0.729166 0.015666
0.616239 0.728528 0.015140
0.649478 0.727892 0.014614
0.682718 0.727258 0.014088
0.715957 0.726626 0.013562
0.749195 0.725997 0.013036
0.782434 0.725369 0.012509
0.805792 0.724902 0.012141
0.827399 0.724464 0.011800
0.849006 0.724029 0.011460
0.870613 0.723596 0.011119
0.892219 0.723166 0.010778
0.913825 0.722737 0.010437
0.935432 0.722310 0.010096
0.957038 0.721886 0.009755
0.978644 0.721464 0.009414
0.016256 0.769931 0.022931
0.049497 0.769264 0.022407
0.082738 0.768598 0.021882
0.115979 0.767935 0.021358
0.149220 0.767273 0.020833
0.182460 0.766614 0.020309
0.215701 0.765957 0.019784
0.248941 0.765303 0.019259
0.282181 0.764650 0.018734
0.315421 0.763999 0.018209
0.348661 0.763351 0.017684
0.381901 0.762704 0.017159
0.415141 0.762060 0.016633
0.448381 0.761418 0.016108
0.481620 0.760778 0.015582
0.514860 0.760140 0.015056
0.548099 0.759505 0.014530
0.581338 0.758871 0.014004
0.614577 0.758240 0.013478
0.647816 0.757610 0.012952
0.681055 0.756983 0.012425
0.714293 0.756358 0.011899
0.747532 0.755735 0.011372
0.780770 0.755114 0.010845
0.804128 0.754654 0.010477
0.825734 0.754223 0.010136
0.847341 0.753795 0.009795
0.868947 0.753368 0.009454
0.890553 0.752944 0.009112
0.912159 0.752522 0.008771
0.933765 0.752103 0.008430
0.955371 0.751685 0.008088
0.976977 0.751269 0.007746
0.014660 0.798462 0.021335
0.047898 0.797846 0.020808
0.081136 0.797232 0.020280
0.114374 0.796619 0.019753
0.147612 0.796008 0.019226
0.180850 0.795398 0.018699
0.214088 0.794789 0.018171
0.247326 0.794181 0.017644
0.280563 0.793575 0.017116
0.313801 0.792971 0.016588
0.347038 0.792367 0.016061
0.380276 0.791766 0.015533
0.413513 0.791165 0.015005
0.446750 0.790566 0.014477
0.479987 0.789968 0.013949
0.513224 0.789372 0.013421
0.546461 0.788777 0.012893
0.579698 0.788183 0.012364
0.612935 0.787591 0.011836
0.646172 0.787000 0.011308
0.679408 0.786411 0.010779
0.712645 0.785823 0.010250
0.745882 0.785236 0.009722
0.779118 0.784651 0.009193
0.802474 0.784225 0.008822
0.824078 0.783829 0.008480
0.845683 0.783434 0.008137
0.867287 0.783040 0.007794
0.888892 0.782648 0.007451
0.910496 0.782257 0.007108
0.932100 0.781868 0.006764
0.953704 0.781479 0.006421
0.975308 0.781093 0.006078
0.013583 0.817724 0.020257
0.046821 0.817112 0.019730
0.080058 0.816502 0.019202
0.113296 0.815894 0.018675
0.146534 0.815287 0.018147
0.179771 0.814681 0.017620
0.213009 0.814076 0.017092
0.246246 0.813473 0.016564
0.279484 0.812872 0.016037
0.312721 0.812272 0.015509
0.345958 0.811673 0.014981
0.379195 0.811075 0.014453
0.412432 0.810479 0.013925
0.445669 0.809884 0.013396
0.478906 0.809291 0.012868
0.512143 0.808699 0.012340
0.545380 0.808108 0.011811
0.578616 0.807519 0.011283
0.611853 0.806931 0.010754
0.645090 0.806345 0.010225
0.678326 0.805760 0.009697
0.711562 0.805176 0.009168
0.744799 0.804594 0.008639
0.778035 0.804013 0.008110
0.801390 0.803592 0.007739
0.822995 0.803199 0.007396
0.844599 0.802809 0.007053
