assets/luts/teal_orange_01.cube
# Generated by scripts/generateLuts.mjs — teal_orange_01
TITLE "teal_orange_01"
LUT_3D_SIZE 5
0.000000 0.009566 0.057440
0.167476 0.011666 0.054022
0.430399 0.014854 0.051812
0.702076 0.018272 0.049951
0.925841 0.021025 0.047542
0.000000 0.227216 0.047654
0.195668 0.229382 0.045008
0.461186 0.232630 0.043520
0.731420 0.236081 0.042306
0.949638 0.238841 0.040470
0.016523 0.497650 0.042846
0.227208 0.500276 0.040959
0.495090 0.503945 0.040166
0.763571 0.507764 0.039572
0.975920 0.510839 0.038271
0.042617 0.768058 0.040182
0.259378 0.771274 0.038999
0.529364 0.775454 0.038755
0.795753 0.779705 0.038553
1.000000 0.783139 0.037508
0.066581 0.983832 0.036339
0.289365 0.987487 0.035581
0.561163 0.992000 0.035691
0.825091 0.996475 0.035774
1.000000 1.000000 0.034964
0.000000 0.010458 0.284505
0.170383 0.012587 0.279036
0.433568 0.015799 0.274749
0.705103 0.019233 0.270784
0.928316 0.021997 0.266248
0.000000 0.228060 0.267703
0.198599 0.230266 0.262942
0.464356 0.233550 0.259320
0.734416 0.237030 0.255957
0.952042 0.239813 0.251957
0.018899 0.498578 0.255702
0.230169 0.501250 0.251667
0.498264 0.504958 0.248717
0.766538 0.508810 0.245957
0.978284 0.511912 0.242492
0.045003 0.769116 0.245771
0.262370 0.772373 0.242463
0.532542 0.776588 0.240170
0.798688 0.780867 0.237997
1.000000 0.784325 0.235056
0.069018 0.984976 0.235077
0.292387 0.988659 0.232471
0.564343 0.993194 0.230806
0.827992 0.997684 0.229185
1.000000 1.000000 0.226742
0.000000 0.011553 0.547127
0.173498 0.013719 0.541345
0.436953 0.016964 0.536692
0.708352 0.020425 0.532306
0.931017 0.023207 0.527298
0.000000 0.229141 0.529045
0.201770 0.231397 0.523814
0.467771 0.234725 0.519677
0.737663 0.238243 0.515753
0.954701 0.241057 0.511150
0.021530 0.499775 0.515275
0.233398 0.502501 0.510644
0.501711 0.506257 0.507059
0.769782 0.510149 0.503627
0.980936 0.513286 0.499459
0.047678 0.770469 0.503183
0.265657 0.773774 0.499180
0.536018 0.778031 0.496162
0.801926 0.782345 0.493235
1.000000 0.785833 0.489517
0.071768 0.986433 0.490029
0.295726 0.990150 0.486656
0.567841 0.994712 0.484202
0.831213 0.999223 0.481771
1.000000 1.000000 0.478503
0.000000 0.012577 0.794497
0.176547 0.014789 0.790112
0.440278 0.018076 0.786773
0.711547 0.021571 0.783620
0.933669 0.024382 0.779765
0.000000 0.230185 0.780775
0.204904 0.232500 0.776690
0.471156 0.235881 0.773625
0.740884 0.239445 0.770699
0.957339 0.242297 0.767025
0.024141 0.500966 0.770559
0.236619 0.503753 0.766854
0.505156 0.507564 0.764128
0.773029 0.511505 0.761491
0.983600 0.514684 0.758056
0.050366 0.771840 0.761314
0.268962 0.775202 0.758045
0.539518 0.779508 0.755701
0.805190 0.783864 0.753392
1.000000 0.787389 0.750240
0.074556 0.987929 0.750391
0.299108 0.991688 0.747585
0.571386 0.996284 0.745646
0.834484 1.000000 0.743682
1.000000 1.000000 0.740837
0.000000 0.013276 0.979926
0.179272 0.015539 0.977666
0.443281 0.018872 0.976483
0.714422 0.022407 0.975509
0.936002 0.025251 0.973851
0.000483 0.230925 0.973449
0.207732 0.233304 0.971587
0.474239 0.236744 0.970758
0.743807 0.240361 0.970075
0.959680 0.243259 0.968645
0.026457 0.501874 0.970744
0.239557 0.504731 0.969305
0.508322 0.508605 0.968842
0.776000 0.512603 0.968434
0.986000 0.515832 0.967141
0.052790 0.772954 0.969042
0.272009 0.776380 0.967903
0.542764 0.780743 0.967604
0.808204 0.785148 0.967254
1.000000 0.788716 0.965981
0.077105 0.989188 0.964940
0.302256 0.992995 0.964003
0.574701 0.997632 0.963856
0.837527 1.000000 0.963605
1.000000 1.000000 0.962401
