assets/luts/teal_orange_01.cube
# Generated by scripts/generateLuts.mjs — teal_orange_01
TITLE "teal_orange_01"
LUT_3D_SIZE 33
0.000000 0.009566 0.057440
0.000000 0.009762 0.056940
0.010096 0.009963 0.056446
0.032759 0.010187 0.055977
0.056996 0.010437 0.055537
0.082696 0.010712 0.055123
0.109750 0.011010 0.054733
0.138047 0.011328 0.054367
0.167476 0.011666 0.054022
0.197927 0.012022 0.053696
0.229289 0.012393 0.053388
0.261451 0.012778 0.053095
0.294303 0.013176 0.052817
0.327735 0.013584 0.052552
0.361635 0.014001 0.052297
0.395893 0.014425 0.052051
0.430399 0.014854 0.051812
0.465041 0.015287 0.051579
0.499710 0.015722 0.051349
0.534295 0.016157 0.051121
0.568684 0.016590 0.050894
0.602767 0.017020 0.050665
0.636434 0.017445 0.050432
0.669574 0.017863 0.050195
0.702076 0.018272 0.049951
0.733829 0.018671 0.049698
0.764723 0.019057 0.049435
0.794647 0.019430 0.049160
0.823490 0.019787 0.048871
0.851142 0.020127 0.048566
0.877492 0.020448 0.048245
0.902428 0.020748 0.047904
0.925841 0.021025 0.047542
0.000000 0.032125 0.055851
0.000000 0.032317 0.055361
0.012771 0.032514 0.054879
0.035548 0.032736 0.054423
0.059893 0.032984 0.053995
0.085693 0.033256 0.053593
0.112839 0.033552 0.053216
0.141221 0.033868 0.052862
0.170727 0.034203 0.052529
0.201246 0.034556 0.052215
0.232670 0.034925 0.051918
0.264885 0.035307 0.051638
0.297784 0.035702 0.051371
0.331253 0.036108 0.051117
0.365184 0.036522 0.050873
0.399465 0.036943 0.050638
0.433985 0.037370 0.050410
0.468635 0.037800 0.050187
0.503303 0.038232 0.049968
0.537878 0.038664 0.049751
0.572251 0.039094 0.049534
0.606310 0.039521 0.049315
0.639944 0.039943 0.049093
0.673044 0.040358 0.048865
0.705498 0.040764 0.048631
0.737195 0.041160 0.048387
0.768025 0.041544 0.048134
0.797877 0.041913 0.047868
0.826640 0.042267 0.047588
0.854203 0.042604 0.047293
0.880457 0.042922 0.046980
0.905289 0.043218 0.046648
0.928590 0.043492 0.046295
0.000000 0.056210 0.054376
0.000000 0.056399 0.053898
0.015535 0.056594 0.053428
0.038428 0.056815 0.052984
0.062879 0.057061 0.052569
0.088779 0.057333 0.052179
0.116018 0.057627 0.051815
0.144483 0.057941 0.051472
0.174065 0.058275 0.051151
0.204654 0.058627 0.050849
0.236138 0.058994 0.050564
0.268407 0.059375 0.050295
0.301351 0.059769 0.050040
0.334858 0.060173 0.049797
0.368819 0.060586 0.049564
0.403122 0.061005 0.049340
0.437657 0.061430 0.049123
0.472313 0.061859 0.048911
0.506979 0.062289 0.048703
0.541546 0.062719 0.048496
0.575901 0.063148 0.048289
0.609935 0.063573 0.048080
0.643537 0.063993 0.047868
0.676595 0.064406 0.047650
0.709000 0.064810 0.047425
0.740641 0.065204 0.047192
0.771406 0.065586 0.046948
0.801185 0.065953 0.046691
0.829867 0.066305 0.046421
0.857342 0.066640 0.046134
0.883499 0.066955 0.045830
0.908226 0.067250 0.045507
0.931414 0.067522 0.045162
0.000000 0.081722 0.053012
0.000000 0.081910 0.052545
0.018385 0.082104 0.052086
0.041392 0.082324 0.051655
0.065950 0.082571 0.051252
0.091950 0.082842 0.050876
0.119279 0.083136 0.050523
0.147829 0.083451 0.050193
0.177487 0.083784 0.049883
0.208144 0.084136 0.049593
0.239689 0.084503 0.049320
0.272011 0.084883 0.049062
0.305000 0.085277 0.048819
0.338545 0.085680 0.048587
0.372535 0.086092 0.048365
0.406860 0.086511 0.048152
0.441408 0.086936 0.047946
0.476070 0.087364 0.047745
0.510735 0.087793 0.047547
0.545292 0.088223 0.047350
0.579629 0.088651 0.047154
0.613638 0.089075 0.046955
0.647206 0.089494 0.046753
0.680223 0.089906 0.046545
0.712578 0.090310 0.046330
0.744161 0.090703 0.046106
0.774861 0.091083 0.045871
0.804567 0.091450 0.045624
0.833168 0.091801 0.045362
0.860553 0.092135 0.045085
0.886612 0.092449 0.044789
0.911234 0.092742 0.044475
0.934307 0.093013 0.044139
0.000000 0.108563 0.051752
0.000000 0.108750 0.051296
0.021314 0.108944 0.050849
0.044436 0.109166 0.050431
0.069101 0.109414 0.050041
0.095199 0.109686 0.049676
0.122620 0.109980 0.049336
0.151253 0.110296 0.049018
0.180988 0.110631 0.048720
0.211713 0.110983 0.048442
0.243318 0.111350 0.048180
0.275692 0.111732 0.047934
0.308726 0.112126 0.047702
0.342308 0.112530 0.047481
0.376327 0.112942 0.047271
0.410673 0.113362 0.047069
0.445235 0.113787 0.046873
0.479902 0.114215 0.046683
0.514565 0.114645 0.046495
0.549111 0.115075 0.046309
0.583431 0.115503 0.046123
0.617413 0.115928 0.045934
0.650947 0.116347 0.045742
0.683922 0.116759 0.045544
0.716227 0.117163 0.045338
0.747752 0.117556 0.045124
0.778385 0.117936 0.044898
0.808017 0.118303 0.044660
0.836535 0.118654 0.044408
0.863831 0.118987 0.044139
0.889791 0.119301 0.043853
0.914306 0.119594 0.043547
0.937266 0.119864 0.043219
0.000000 0.136633 0.050592
0.002690 0.136820 0.050146
0.024319 0.137016 0.049712
0.047554 0.137240 0.049307
0.072326 0.137489 0.048929
0.098523 0.137764 0.048577
0.126035 0.138060 0.048248
0.154751 0.138377 0.047942
0.184561 0.138714 0.047657
0.215354 0.139068 0.047390
0.247019 0.139437 0.047140
0.279446 0.139820 0.046906
0.312523 0.140216 0.046684
0.346142 0.140621 0.046475
0.380189 0.141036 0.046276
0.414556 0.141457 0.046085
0.449131 0.141883 0.045900
0.483804 0.142313 0.045720
0.518463 0.142744 0.045543
0.552998 0.143175 0.045367
0.587299 0.143604 0.045191
0.621254 0.144030 0.045012
0.654754 0.144450 0.044830
0.687686 0.144863 0.044642
0.719940 0.145268 0.044446
0.751407 0.145662 0.044241
0.781973 0.146043 0.044025
0.811530 0.146410 0.043796
0.839966 0.146762 0.043552
0.867170 0.147096 0.043293
0.893031 0.147411 0.043015
0.917439 0.147704 0.042717
0.940283 0.147975 0.042398
0.000000 0.165832 0.049526
0.005665 0.166020 0.049091
0.027393 0.166219 0.048669
0.050742 0.166446 0.048277
0.075620 0.166698 0.047911
0.101916 0.166975 0.047571
0.129518 0.167275 0.047255
0.158317 0.167595 0.046961
0.188202 0.167934 0.046687
0.219062 0.168291 0.046432
0.250787 0.168663 0.046194
0.283266 0.169049 0.045971
0.316387 0.169446 0.045761
0.350041 0.169854 0.045563
0.384117 0.170271 0.045374
0.418504 0.170695 0.045194
0.453092 0.171123 0.045020
0.487769 0.171555 0.044851
0.522425 0.171988 0.044684
0.556949 0.172422 0.044519
0.591230 0.172853 0.044353
0.625158 0.173280 0.044184
0.658622 0.173703 0.044011
0.691511 0.174118 0.043833
0.723714 0.174524 0.043646
0.755121 0.174919 0.043451
0.785620 0.175302 0.043244
0.815101 0.175671 0.043024
0.843453 0.176025 0.042790
0.870565 0.176360 0.042539
0.896327 0.176676 0.042270
0.920627 0.176971 0.041981
0.943355 0.177243 0.041670
0.000000 0.196060 0.048549
0.008695 0.196250 0.048125
0.030532 0.196453 0.047715
0.053995 0.196683 0.047335
0.078978 0.196940 0.046982
0.105372 0.197221 0.046654
0.133065 0.197524 0.046350
0.161947 0.197848 0.046068
0.191906 0.198191 0.045806
0.222834 0.198551 0.045563
0.254617 0.198926 0.045336
0.287147 0.199315 0.045124
0.320312 0.199717 0.044926
0.354002 0.200128 0.044739
0.388106 0.200548 0.044561
0.422513 0.200974 0.044392
0.457112 0.201406 0.044228
0.491793 0.201841 0.044070
0.526445 0.202277 0.043913
0.560957 0.202713 0.043758
0.595218 0.203147 0.043602
0.629118 0.203578 0.043444
0.662546 0.204003 0.043281
0.695391 0.204420 0.043112
0.727542 0.204829 0.042935
0.758889 0.205227 0.042749
0.789320 0.205612 0.042551
0.818725 0.205984 0.042340
0.846992 0.206339 0.042115
0.874012 0.206677 0.041873
0.899673 0.206995 0.041612
0.923864 0.207292 0.041332
0.946475 0.207566 0.041029
0.000000 0.227216 0.047654
0.011777 0.227409 0.047241
0.033730 0.227617 0.046845
0.057306 0.227852 0.046477
0.082395 0.228113 0.046136
0.108887 0.228399 0.045820
0.136670 0.228706 0.045528
0.165634 0.229035 0.045258
0.195668 0.229382 0.045008
0.226662 0.229746 0.044776
0.258504 0.230126 0.044561
0.291085 0.230519 0.044361
0.324293 0.230925 0.044173
0.358018 0.231340 0.043997
0.392149 0.231764 0.043831
0.426575 0.232195 0.043672
0.461186 0.232630 0.043520
0.495870 0.233069 0.043371
0.530518 0.233509 0.043225
0.565017 0.233948 0.043080
0.599258 0.234386 0.042934
0.633130 0.234820 0.042786
0.666521 0.235248 0.042633
0.699321 0.235669 0.042473
0.731420 0.236081 0.042306
0.762705 0.236482 0.042129
0.793068 0.236871 0.041941
0.822395 0.237245 0.041739
0.850578 0.237603 0.041522
0.877504 0.237944 0.041289
0.903064 0.238265 0.041037
0.927146 0.238564 0.040765
0.949638 0.238841 0.040470
0.000000 0.259199 0.046838
0.014909 0.259396 0.046436
0.036982 0.259609 0.046052
0.060672 0.259850 0.045696
0.085866 0.260117 0.045368
0.112455 0.260408 0.045065
0.140328 0.260721 0.044785
0.169374 0.261054 0.044526
0.199482 0.261407 0.044288
0.230542 0.261776 0.044068
0.262443 0.262161 0.043864
0.295075 0.262559 0.043675
0.328325 0.262969 0.043499
0.362085 0.263389 0.043334
0.396243 0.263818 0.043178
0.430688 0.264253 0.043030
0.465309 0.264693 0.042888
0.499996 0.265136 0.042750
0.534638 0.265580 0.042615
0.569125 0.266024 0.042480
0.603345 0.266466 0.042344
0.637187 0.266904 0.042205
0.670541 0.267336 0.042062
0.703296 0.267761 0.041912
0.735341 0.268177 0.041754
0.766565 0.268582 0.041586
0.796858 0.268974 0.041407
0.826108 0.269352 0.041214
0.854205 0.269714 0.041006
0.881037 0.270058 0.040781
0.906494 0.270382 0.040538
0.930466 0.270685 0.040274
0.952840 0.270965 0.039988
0.000000 0.291908 0.046095
0.018090 0.292109 0.045703
0.040284 0.292329 0.045331
0.064086 0.292576 0.044988
0.089386 0.292849 0.044672
0.116072 0.293146 0.044381
0.144034 0.293465 0.044113
0.173162 0.293804 0.043867
0.203344 0.294162 0.043640
0.234470 0.294537 0.043431
0.266428 0.294928 0.043239
0.299110 0.295332 0.043061
0.332403 0.295747 0.042896
0.366197 0.296173 0.042742
0.400380 0.296607 0.042597
0.434844 0.297047 0.042460
0.469476 0.297492 0.042328
0.504165 0.297940 0.042201
0.538802 0.298389 0.042076
0.573274 0.298838 0.041951
0.607472 0.299285 0.041825
0.641285 0.299727 0.041696
0.674601 0.300164 0.041562
0.707310 0.300594 0.041422
0.739301 0.301014 0.041273
0.770463 0.301423 0.041114
0.800685 0.301820 0.040944
0.829857 0.302202 0.040760
0.857867 0.302568 0.040561
0.884605 0.302916 0.040345
0.909959 0.303244 0.040110
0.933819 0.303551 0.039854
0.956074 0.303834 0.039576
0.000166 0.325240 0.045418
0.021315 0.325446 0.045037
0.043630 0.325673 0.044678
0.067545 0.325927 0.044348
0.092949 0.326207 0.044044
0.119732 0.326510 0.043764
0.147783 0.326836 0.043508
0.176992 0.327182 0.043274
0.207247 0.327546 0.043059
0.238438 0.327928 0.042862
0.270455 0.328325 0.042681
0.303186 0.328735 0.042514
0.336520 0.329156 0.042360
0.370348 0.329588 0.042217
0.404558 0.330027 0.042083
0.439039 0.330473 0.041956
0.473680 0.330924 0.041835
0.508372 0.331378 0.041718
0.543002 0.331833 0.041603
0.577460 0.332287 0.041488
0.611636 0.332739 0.041372
0.645418 0.333187 0.041252
0.678696 0.333629 0.041128
0.711358 0.334063 0.040997
0.743294 0.334488 0.040858
0.774394 0.334902 0.040708
0.804545 0.335304 0.040547
0.833637 0.335690 0.040372
0.861560 0.336061 0.040181
0.888202 0.336413 0.039974
0.913453 0.336746 0.039747
0.937201 0.337057 0.039500
0.959335 0.337345 0.039230
0.003399 0.359093 0.044802
0.024580 0.359305 0.044433
0.047014 0.359540 0.044086
0.071041 0.359801 0.043768
0.096550 0.360088 0.043476
0.123430 0.360399 0.043209
0.151569 0.360732 0.042965
0.180859 0.361085 0.042742
0.211187 0.361456 0.042539
0.242443 0.361845 0.042353
0.274517 0.362248 0.042183
0.307297 0.362665 0.042028
0.340673 0.363093 0.041885
0.374534 0.363531 0.041752
0.408769 0.363977 0.041629
0.443267 0.364429 0.041513
0.477918 0.364886 0.041402
0.512611 0.365346 0.041295
0.547234 0.365807 0.041190
0.581678 0.366267 0.041085
0.615830 0.366724 0.040979
0.649581 0.367178 0.040869
0.682820 0.367626 0.040755
0.715435 0.368065 0.040633
0.747316 0.368496 0.040503
0.778351 0.368915 0.040363
0.808431 0.369322 0.040210
0.837443 0.369714 0.040044
0.865278 0.370089 0.039862
0.891824 0.370446 0.039663
0.916969 0.370784 0.039444
0.940605 0.371099 0.039205
0.962618 0.371392 0.038943
0.006656 0.393364 0.044243
0.027878 0.393583 0.043885
0.050432 0.393826 0.043551
0.074571 0.394095 0.043245
0.100184 0.394390 0.042965
0.127160 0.394708 0.042710
0.155388 0.395049 0.042477
0.184758 0.395409 0.042266
0.215159 0.395788 0.042074
0.246480 0.396184 0.041900
0.278610 0.396595 0.041742
0.311439 0.397018 0.041597
0.344855 0.397454 0.041465
0.378749 0.397898 0.041343
0.413009 0.398351 0.041231
0.447524 0.398810 0.041125
0.482183 0.399274 0.041025
0.516876 0.399740 0.040928
0.551493 0.400207 0.040833
0.585921 0.400674 0.040738
0.620050 0.401137 0.040641
0.653769 0.401597 0.040541
0.686968 0.402050 0.040436
0.719535 0.402496 0.040324
0.751360 0.402933 0.040203
0.782331 0.403358 0.040071
0.812338 0.403770 0.039927
0.841270 0.404167 0.039770
0.869015 0.404547 0.039596
0.895464 0.404910 0.039405
0.920504 0.405252 0.039195
0.944026 0.405573 0.038964
0.965919 0.405870 0.038710
0.009932 0.427950 0.043734
0.031204 0.428176 0.043387
0.053878 0.428427 0.043065
0.078129 0.428705 0.042772
0.103845 0.429008 0.042504
0.130917 0.429335 0.042261
0.159233 0.429683 0.042040
0.188683 0.430052 0.041840
0.219156 0.430439 0.041660
0.250541 0.430842 0.041497
0.282728 0.431260 0.041350
0.315605 0.431692 0.041216
0.349062 0.432134 0.041095
0.382988 0.432586 0.040984
0.417272 0.433046 0.040882
0.451803 0.433512 0.040787
0.486471 0.433983 0.040697
0.521164 0.434456 0.040610
0.555772 0.434930 0.040525
0.590184 0.435403 0.040440
0.624289 0.435873 0.040353
0.657976 0.436339 0.040262
0.691134 0.436799 0.040166
0.723653 0.437251 0.040063
0.755420 0.437693 0.039951
0.786327 0.438124 0.039829
0.816260 0.438542 0.039694
0.845111 0.438945 0.039545
0.872767 0.439331 0.039380
0.899117 0.439699 0.039197
0.924051 0.440047 0.038995
0.947458 0.440373 0.038772
0.969240 0.440675 0.038526
0.013223 0.462747 0.043270
0.034554 0.462981 0.042935
0.057347 0.463241 0.042625
0.081709 0.463527 0.042343
0.107529 0.463839 0.042088
0.134696 0.464174 0.041856
0.163100 0.464531 0.041647
0.192630 0.464908 0.041459
0.223174 0.465303 0.041290
0.254623 0.465714 0.041138
0.286866 0.466141 0.041002
0.319790 0.466580 0.040880
0.353287 0.467030 0.040769
0.387245 0.467490 0.040669
0.421553 0.467957 0.040577
0.456099 0.468431 0.040492
0.490775 0.468908 0.040412
0.525468 0.469388 0.040336
0.560067 0.469869 0.040261
0.594462 0.470349 0.040185
0.628542 0.470826 0.040108
0.662196 0.471299 0.040027
0.695313 0.471765 0.039940
0.727783 0.472223 0.039846
0.759493 0.472672 0.039743
0.790333 0.473109 0.039629
0.820193 0.473533 0.039503
0.848961 0.473942 0.039362
0.876526 0.474334 0.039206
0.902778 0.474707 0.039031
0.927605 0.475061 0.038837
0.950897 0.475392 0.038622
0.972575 0.475700 0.038384
0.016523 0.497650 0.042846
0.037922 0.497893 0.042521
0.060834 0.498162 0.042224
0.085306 0.498457 0.041954
0.111229 0.498778 0.041710
0.138492 0.499122 0.041491
0.166983 0.499488 0.041294
0.196592 0.499873 0.041117
0.227208 0.500276 0.040959
0.258720 0.500696 0.040819
0.291018 0.501131 0.040693
0.323990 0.501578 0.040582
0.357526 0.502036 0.040482
0.391515 0.502504 0.040392
0.425846 0.502979 0.040311
0.460408 0.503460 0.040236
0.495090 0.503945 0.040166
0.529782 0.504432 0.040100
0.564372 0.504920 0.040034
0.598750 0.505407 0.039969
0.632805 0.505891 0.039901
0.666425 0.506371 0.039829
0.699500 0.506844 0.039751
0.731919 0.507309 0.039666
0.763571 0.507764 0.039572
0.794345 0.508207 0.039467
0.824130 0.508637 0.039349
0.852815 0.509052 0.039217
0.880289 0.509450 0.039069
0.906442 0.509829 0.038902
0.931161 0.510188 0.038715
0.954336 0.510525 0.038505
0.975920 0.510839 0.038271
0.019826 0.532555 0.042454
0.041302 0.532807 0.042142
0.064332 0.533085 0.041857
0.088916 0.533390 0.041599
0.114942 0.533720 0.041367
0.142299 0.534073 0.041159
0.170877 0.534447 0.040973
0.200565 0.534842 0.040808
0.231252 0.535254 0.040661
0.262827 0.535682 0.040532
0.295179 0.536125 0.040417
0.328198 0.536580 0.040317
0.361773 0.537047 0.040227
0.395793 0.537522 0.040148
0.430146 0.538005 0.040077
0.464723 0.538494 0.040013
0.499412 0.538987 0.039953
0.534102 0.539482 0.039896
0.568682 0.539977 0.039841
0.603042 0.540471 0.039784
0.637071 0.540963 0.039726
0.670657 0.541449 0.039663
0.703689 0.541929 0.039595
0.736058 0.542400 0.039519
0.767651 0.542862 0.039433
0.798357 0.543312 0.039337
0.828067 0.543748 0.039227
0.856668 0.544169 0.039102
0.884050 0.544573 0.038958
0.910102 0.544958 0.038795
0.934712 0.545323 0.038612
0.957770 0.545665 0.038405
0.979269 0.545986 0.038175
0.023128 0.567357 0.042091
0.044689 0.567618 0.041790
0.067838 0.567906 0.041517
0.092532 0.568220 0.041271
0.118660 0.568560 0.041051
0.146112 0.568922 0.040855
0.174776 0.569305 0.040680
0.204542 0.569709 0.040526
0.235300 0.570130 0.040391
0.266937 0.570567 0.040272
0.299344 0.571018 0.040169
0.332410 0.571482 0.040079
0.366023 0.571956 0.040000
0.400073 0.572440 0.039931
0.434448 0.572931 0.039871
0.469039 0.573428 0.039816
0.503734 0.573928 0.039766
0.538422 0.574431 0.039719
0.572992 0.574934 0.039673
0.607333 0.575435 0.039627
0.641334 0.575933 0.039577
0.674885 0.576427 0.039524
0.707875 0.576913 0.039464
0.740192 0.577392 0.039396
0.771725 0.577860 0.039317
0.802364 0.578316 0.039226
0.831997 0.578758 0.039120
0.860513 0.579186 0.038998
0.887802 0.579596 0.038859
0.913753 0.579987 0.038700
0.938253 0.580357 0.038519
0.961193 0.580705 0.038316
0.982615 0.581031 0.038090
0.026422 0.601950 0.041751
0.048078 0.602220 0.041461
0.071345 0.602518 0.041200
0.096149 0.602842 0.040966
0.122379 0.603191 0.040757
0.149925 0.603563 0.040573
0.178675 0.603955 0.040410
0.208520 0.604368 0.040267
0.239347 0.604797 0.040143
0.271047 0.605243 0.040035
0.303508 0.605703 0.039942
0.336619 0.606175 0.039863
0.370270 0.606658 0.039794
0.404349 0.607150 0.039736
0.438747 0.607649 0.039685
0.473351 0.608154 0.039641
0.508051 0.608662 0.039601
0.542735 0.609172 0.039564
0.577294 0.609682 0.039527
0.611616 0.610191 0.039489
0.645591 0.610696 0.039448
0.679106 0.611197 0.039401
0.712051 0.611690 0.039346
0.744316 0.612175 0.039283
0.775789 0.612650 0.039208
0.806358 0.613113 0.039121
0.835914 0.613561 0.039019
0.864346 0.613995 0.038901
0.891541 0.614410 0.038765
0.917389 0.614807 0.038610
0.941779 0.615183 0.038433
0.964600 0.615537 0.038233
0.985955 0.615870 0.038011
0.029704 0.636229 0.041427
0.051464 0.636508 0.041149
0.074848 0.636816 0.040899
0.099761 0.637150 0.040677
0.126093 0.637508 0.040480
0.153733 0.637889 0.040307
0.182569 0.638291 0.040155
0.212491 0.638712 0.040024
0.243388 0.639151 0.039910
0.275149 0.639605 0.039813
0.307663 0.640074 0.039731
0.340820 0.640555 0.039662
0.374508 0.641046 0.039604
0.408617 0.641546 0.039556
0.443035 0.642053 0.039516
0.477652 0.642565 0.039481
0.512357 0.643081 0.039450
0.547038 0.643599 0.039420
0.581585 0.644117 0.039390
0.615888 0.644632 0.039358
0.649834 0.645145 0.039321
0.683312 0.645652 0.039278
0.716213 0.646152 0.039228
0.748425 0.646644 0.039169
0.779836 0.647125 0.039099
0.810336 0.647594 0.039015
0.839815 0.648049 0.038918
0.868159 0.648488 0.038804
0.895260 0.648910 0.038672
0.921005 0.649312 0.038520
0.945284 0.649694 0.038346
0.967986 0.650053 0.038150
0.989282 0.650391 0.037932
0.032967 0.670086 0.041113
0.054840 0.670375 0.040847
0.078342 0.670693 0.040610
0.103364 0.671036 0.040399
0.129798 0.671404 0.040214
0.157530 0.671794 0.040052
0.186452 0.672205 0.039911
0.216451 0.672635 0.039791
0.247417 0.673083 0.039688
0.279239 0.673546 0.039602
0.311807 0.674023 0.039531
0.345008 0.674512 0.039472
0.378733 0.675012 0.039424
0.412870 0.675520 0.039385
0.447309 0.676035 0.039352
0.481938 0.676555 0.039324
0.516647 0.677078 0.039298
0.551324 0.677603 0.039273
0.585859 0.678128 0.039248
0.620141 0.678651 0.039220
0.654058 0.679171 0.039189
0.687499 0.679685 0.039151
0.720355 0.680191 0.039105
0.752513 0.680689 0.039050
0.783862 0.681177 0.038984
0.814292 0.681652 0.038905
0.843691 0.682113 0.038811
0.871949 0.682558 0.038701
0.898954 0.682985 0.038573
0.924596 0.683393 0.038424
0.948763 0.683780 0.038254
0.971343 0.684144 0.038061
0.992590 0.684489 0.037848
0.036208 0.703415 0.040805
0.058202 0.703714 0.040551
0.081820 0.704041 0.040325
0.106952 0.704394 0.040126
0.133486 0.704771 0.039952
0.161312 0.705171 0.039801
0.190318 0.705591 0.039672
0.220394 0.706030 0.039562
0.251429 0.706486 0.039471
0.283312 0.706958 0.039395
0.315932 0.707443 0.039332
0.349177 0.707941 0.039281
0.382939 0.708448 0.039240
0.417104 0.708964 0.039206
0.451562 0.709487 0.039178
0.486203 0.710015 0.039155
0.520915 0.710545 0.039135
0.555588 0.711078 0.039116
0.590110 0.711609 0.039095
0.624370 0.712139 0.039073
0.658257 0.712665 0.039045
0.691661 0.713186 0.039012
0.724470 0.713699 0.038971
0.756574 0.714203 0.038921
0.787861 0.714697 0.038859
0.818219 0.715178 0.038784
0.847539 0.715644 0.038694
0.875709 0.716095 0.038588
0.902618 0.716527 0.038463
0.928155 0.716940 0.038318
0.952208 0.717332 0.038152
0.974668 0.717701 0.037961
0.995875 0.718052 0.037753
0.039425 0.736108 0.040497
0.061544 0.736417 0.040254
0.085279 0.736754 0.040040
0.110519 0.737116 0.039853
0.137154 0.737502 0.039690
0.165072 0.737911 0.039550
0.194163 0.738340 0.039431
0.224315 0.738788 0.039330
0.255418 0.739253 0.039246
0.287361 0.739733 0.039176
0.320033 0.740226 0.039120
0.353322 0.740732 0.039074
0.387119 0.741247 0.039039
0.421312 0.741771 0.039011
0.455789 0.742301 0.038989
0.490441 0.742836 0.038971
0.525156 0.743374 0.038956
0.559823 0.743913 0.038942
0.594332 0.744452 0.038926
0.628570 0.744988 0.038909
0.662427 0.745521 0.038886
0.695792 0.746047 0.038857
0.728555 0.746567 0.038821
0.760603 0.747077 0.038775
0.791826 0.747576 0.038717
0.822113 0.748062 0.038646
0.851353 0.748534 0.038560
0.879434 0.748990 0.038458
0.906246 0.749427 0.038336
0.931677 0.749845 0.038195
0.955616 0.750242 0.038032
0.977953 0.750615 0.037845
0.999130 0.750972 0.037642
0.042617 0.768058 0.040182
0.064860 0.768377 0.039951
0.088712 0.768723 0.039749
0.114060 0.769094 0.039571
0.140795 0.769489 0.039417
0.168805 0.769907 0.039285
0.197979 0.770345 0.039172
0.228208 0.770801 0.039077
0.259378 0.771274 0.038999
0.291381 0.771762 0.038936
0.324104 0.772264 0.038885
0.357437 0.772777 0.038846
0.391269 0.773300 0.038816
0.425488 0.773831 0.038794
0.459985 0.774368 0.038777
0.494647 0.774910 0.038765
0.529364 0.775454 0.038755
0.564025 0.776000 0.038746
0.598519 0.776545 0.038736
0.632735 0.777088 0.038723
0.666561 0.777627 0.038705
0.699887 0.778159 0.038681
0.732602 0.778684 0.038649
0.764594 0.779200 0.038607
0.795753 0.779705 0.038553
0.825967 0.780196 0.038486
0.855126 0.780673 0.038404
0.883117 0.781134 0.038305
0.909831 0.781576 0.038188
0.935156 0.781998 0.038050
0.958981 0.782399 0.037890
0.981194 0.782776 0.037707
1.000000 0.783139 0.037508
0.045779 0.799156 0.039853
0.068146 0.799484 0.039631
0.092113 0.799839 0.039435
0.117569 0.800220 0.039265
0.144403 0.800624 0.039118
0.172505 0.801050 0.038992
0.201763 0.801496 0.038886
0.232067 0.801960 0.038798
0.263305 0.802441 0.038726
0.295366 0.802937 0.038669
0.328141 0.803446 0.038624
0.361516 0.803967 0.038591
0.395383 0.804497 0.038566
0.429628 0.805035 0.038550
0.464143 0.805579 0.038539
0.498815 0.806127 0.038532
0.533534 0.806678 0.038527
0.568188 0.807230 0.038523
0.602667 0.807782 0.038518
0.636859 0.808330 0.038509
0.670654 0.808875 0.038496
0.703940 0.809413 0.038477
0.736606 0.809943 0.038449
0.768542 0.810464 0.038411
0.799636 0.810973 0.038362
0.829776 0.811469 0.038299
0.858853 0.811951 0.038221
0.886754 0.812416 0.038126
0.913369 0.812862 0.038012
0.938587 0.813289 0.037878
0.962295 0.813693 0.037721
0.984384 0.814074 0.037541
1.000000 0.814442 0.037347
0.048904 0.829294 0.039494
0.071394 0.829631 0.039278
0.095477 0.829995 0.039090
0.121041 0.830384 0.038926
0.147974 0.830796 0.038786
0.176167 0.831230 0.038666
0.205508 0.831684 0.038567
0.235887 0.832156 0.038485
0.267192 0.832645 0.038420
0.299312 0.833148 0.038368
0.332136 0.833664 0.038330
0.365554 0.834192 0.038302
0.399454 0.834729 0.038284
0.433726 0.835273 0.038272
0.468258 0.835824 0.038267
0.502939 0.836378 0.038265
0.537659 0.836936 0.038266
0.572306 0.837493 0.038267
0.606769 0.838050 0.038266
0.640937 0.838604 0.038263
0.674700 0.839154 0.038254
0.707945 0.839697 0.038239
0.740562 0.840232 0.038216
0.772440 0.840757 0.038182
0.803468 0.841271 0.038137
0.833534 0.841772 0.038078
0.862528 0.842257 0.038004
