assets/luts/teal_orange_01.cube
# Generated by scripts/generateLuts.mjs — teal_orange_01
TITLE "teal_orange_01"
LUT_3D_SIZE 9
0.000000 0.009566 0.057440
0.056996 0.010437 0.055537
0.167476 0.011666 0.054022
0.294303 0.013176 0.052817
0.430399 0.014854 0.051812
0.568684 0.016590 0.050894
0.702076 0.018272 0.049951
0.823490 0.019787 0.048871
0.925841 0.021025 0.047542
0.000000 0.108563 0.051752
0.069101 0.109414 0.050041
0.180988 0.110631 0.048720
0.308726 0.112126 0.047702
0.445235 0.113787 0.046873
0.583431 0.115503 0.046123
0.716227 0.117163 0.045338
0.836535 0.118654 0.044408
0.937266 0.119864 0.043219
0.000000 0.227216 0.047654
0.082395 0.228113 0.046136
0.195668 0.229382 0.045008
0.324293 0.230925 0.044173
0.461186 0.232630 0.043520
0.599258 0.234386 0.042934
0.731420 0.236081 0.042306
0.850578 0.237603 0.041522
0.949638 0.238841 0.040470
0.003399 0.359093 0.044802
0.096550 0.360088 0.043476
0.211187 0.361456 0.042539
0.340673 0.363093 0.041885
0.477918 0.364886 0.041402
0.615830 0.366724 0.040979
0.747316 0.368496 0.040503
0.865278 0.370089 0.039862
0.962618 0.371392 0.038943
0.016523 0.497650 0.042846
0.111229 0.498778 0.041710
0.227208 0.500276 0.040959
0.357526 0.502036 0.040482
0.495090 0.503945 0.040166
0.632805 0.505891 0.039901
0.763571 0.507764 0.039572
0.880289 0.509450 0.039069
0.975920 0.510839 0.038271
0.029704 0.636229 0.041427
0.126093 0.637508 0.040480
0.243388 0.639151 0.039910
0.374508 0.641046 0.039604
0.512357 0.643081 0.039450
0.649834 0.645145 0.039321
0.779836 0.647125 0.039099
0.895260 0.648910 0.038672
0.989282 0.650391 0.037932
0.042617 0.768058 0.040182
0.140795 0.769489 0.039417
0.259378 0.771274 0.038999
0.391269 0.773300 0.038816
0.529364 0.775454 0.038755
0.666561 0.777627 0.038705
0.795753 0.779705 0.038553
0.909831 0.781576 0.038188
1.000000 0.783139 0.037508
0.055023 0.886252 0.038654
0.154980 0.887818 0.038001
0.274824 0.889723 0.037686
0.407450 0.891857 0.037597
0.545754 0.894108 0.037622
0.682628 0.896364 0.037649
0.810960 0.898512 0.037565
0.923639 0.900441 0.037260
1.000000 0.902057 0.036640
0.066581 0.983832 0.036339
0.168292 0.985497 0.035795
0.289365 0.987487 0.035581
0.422692 0.989693 0.035583
0.561163 0.992000 0.035691
0.697668 0.994298 0.035792
0.825091 0.996475 0.035774
0.936315 0.998417 0.035526
1.000000 1.000000 0.034964
0.000000 0.009969 0.163353
0.058266 0.010847 0.160829
0.168886 0.012083 0.158691
0.295804 0.013598 0.156860
0.431939 0.015282 0.155227
0.570214 0.017022 0.153678
0.703545 0.018707 0.152101
0.824847 0.020225 0.150386
0.927033 0.021464 0.148420
0.000000 0.108941 0.155559
0.070377 0.109800 0.153220
0.182401 0.111025 0.151270
0.310227 0.112528 0.149621
0.446773 0.114196 0.148159
0.584955 0.115918 0.146774
0.717686 0.117582 0.145353
0.837877 0.119078 0.143784
0.938438 0.120292 0.141956
0.000000 0.227591 0.149336
0.083678 0.228498 0.147185
0.197087 0.229776 0.145425
0.325797 0.231328 0.143956
0.462723 0.233041 0.142666
0.600777 0.234804 0.141444
0.732869 0.236505 0.140177
0.851906 0.238033 0.138754
0.950791 0.239276 0.137062
0.004542 0.359482 0.144347
0.097841 0.360487 0.142386
0.212611 0.361866 0.140814
0.342179 0.363512 0.139524
0.479454 0.365314 0.138405
0.617345 0.367160 0.137344
0.748756 0.368939 0.136230
0.866591 0.370538 0.134951
0.963751 0.371846 0.133393
0.017661 0.498063 0.140247
0.112529 0.499202 0.138477
0.228638 0.500711 0.137091
0.359035 0.502481 0.135978
0.496626 0.504399 0.135027
0.634315 0.506353 0.134125
0.765003 0.508233 0.133161
0.881589 0.509925 0.132022
0.977049 0.511321 0.130597
0.030838 0.636673 0.136685
0.127401 0.637963 0.135106
0.244824 0.639616 0.133903
0.376020 0.641521 0.132964
0.513891 0.643564 0.132177
0.651338 0.645636 0.131431
0.781258 0.647623 0.130612
0.896545 0.649414 0.129610
0.990407 0.650902 0.128315
0.043757 0.768533 0.133305
0.142111 0.769975 0.131914
0.260820 0.771768 0.130889
0.392783 0.773803 0.130120
0.530899 0.775966 0.129494
0.668062 0.778145 0.128898
0.797166 0.780229 0.128220
0.911103 0.782107 0.127348
1.000000 0.783676 0.126181
0.056174 0.886753 0.129744
0.156306 0.888327 0.128535
0.276272 0.890241 0.127685
0.408969 0.892383 0.127080
0.547289 0.894640 0.126607
0.684124 0.896902 0.126156
0.812365 0.899055 0.125613
0.924897 0.900989 0.124867
1.000000 0.902610 0.123824
0.067744 0.984348 0.125632
0.169628 0.986020 0.124601
0.290820 0.988017 0.123918
0.424214 0.990228 0.123470
0.562698 0.992541 0.123146
0.699161 0.994844 0.122833
0.826487 0.997024 0.122418
0.937559 0.998969 0.121789
1.000000 1.000000 0.120866
0.000000 0.010458 0.284505
0.059621 0.011343 0.281579
0.170383 0.012587 0.279036
0.297391 0.014109 0.276797
0.433568 0.015799 0.274749
0.571833 0.017544 0.272782
0.705103 0.019233 0.270784
0.826293 0.020755 0.268644
0.928316 0.021997 0.266248
0.000000 0.109409 0.275337
0.071742 0.110277 0.272585
0.183906 0.111512 0.270219
0.311820 0.113023 0.268149
0.448404 0.114699 0.266263
0.586572 0.116428 0.264449
0.719238 0.118099 0.262597
0.839313 0.119599 0.260594
0.939705 0.120818 0.258328
0.000000 0.228060 0.267703
0.085055 0.228977 0.265129
0.198599 0.230266 0.262942
0.327395 0.231828 0.261043
0.464356 0.233550 0.259320
0.602393 0.235321 0.257662
0.734416 0.237030 0.255957
0.853331 0.238564 0.254092
0.952042 0.239813 0.251957
0.005779 0.359968 0.261270
0.099229 0.360985 0.258878
0.214133 0.362375 0.256871
0.343783 0.364032 0.255145
0.481090 0.365844 0.253586
0.618959 0.367699 0.252083
0.750297 0.369485 0.250525
0.868006 0.371092 0.248799
0.964988 0.372407 0.246793
0.018899 0.498578 0.255702
0.113929 0.499730 0.253494
0.230169 0.501250 0.251667
0.360646 0.503030 0.250112
0.498264 0.504958 0.248717
0.635928 0.506922 0.247369
0.766538 0.508810 0.245957
0.882993 0.510510 0.244368
0.978284 0.511912 0.242492
0.032075 0.637222 0.250652
0.128813 0.638524 0.248630
0.246365 0.640189 0.246983
0.377637 0.642103 0.245598
0.515532 0.644157 0.244364
0.652950 0.646237 0.243169
0.782787 0.648232 0.241900
0.897938 0.650030 0.240446
0.991642 0.651525 0.238700
0.045003 0.769116 0.245771
0.143536 0.770569 0.243934
0.262370 0.772373 0.242463
0.394406 0.774417 0.241246
0.532542 0.776588 0.240170
0.669671 0.778776 0.239125
0.798688 0.780867 0.237997
0.912483 0.782750 0.236674
1.000000 0.784325 0.235056
0.057434 0.887364 0.240700
0.157742 0.888948 0.239045
0.277831 0.890870 0.237747
0.410597 0.893020 0.236694
0.548933 0.895285 0.235774
0.685731 0.897552 0.234873
0.813879 0.899711 0.233881
0.926264 0.901649 0.232685
1.000000 0.903275 0.231194
0.069018 0.984976 0.235077
0.171075 0.986655 0.233600
0.292387 0.988659 0.232471
0.425847 0.990876 0.231577
0.564343 0.993194 0.230806
0.700763 0.995500 0.230046
0.827992 0.997684 0.229185
0.938912 0.999632 0.228110
1.000000 1.000000 0.226742
0.000000 0.010997 0.414547
0.061028 0.011891 0.411437
0.171932 0.013144 0.408706
0.299032 0.014674 0.406272
0.435251 0.016371 0.404024
0.573507 0.018123 0.401850
0.706717 0.019817 0.399640
0.827796 0.021344 0.397281
0.929655 0.022589 0.394663
0.000000 0.109932 0.404732
0.073163 0.110810 0.401779
0.185466 0.112055 0.399207
0.313470 0.113576 0.396925
0.450092 0.115261 0.394822
0.588248 0.116999 0.392786
0.720850 0.118677 0.390706
0.840808 0.120184 0.388471
0.941032 0.121408 0.385967
0.000000 0.228588 0.396393
0.086490 0.229517 0.393602
0.200172 0.230818 0.391194
0.329054 0.232390 0.389068
0.466050 0.234123 0.387114
0.604071 0.235904 0.385220
0.736025 0.237621 0.383273
0.854819 0.239163 0.381164
0.953357 0.240418 0.378779
0.007078 0.360518 0.389205
0.100679 0.361548 0.386582
0.215718 0.362950 0.384340
0.345452 0.364619 0.382373
0.482790 0.366441 0.380571
0.620639 0.368306 0.378820
0.751904 0.370102 0.377009
0.869487 0.371717 0.375027
0.966292 0.373039 0.372761
0.020199 0.499161 0.382836
0.115395 0.500325 0.380385
0.231767 0.501858 0.378311
0.362324 0.503650 0.376505
0.499971 0.505589 0.374855
0.637610 0.507563 0.373248
0.768143 0.509460 0.371574
0.884467 0.511168 0.369720
0.979592 0.512578 0.367576
0.033379 0.637842 0.376947
0.130295 0.639157 0.374671
0.247976 0.640834 0.372766
0.379325 0.642760 0.371121
0.517245 0.644824 0.369623
0.654634 0.646914 0.368161
0.784389 0.648918 0.366622
0.899404 0.650724 0.364896
0.992951 0.652226 0.362875
0.046321 0.769773 0.371192
0.145033 0.771238 0.369093
0.263994 0.773053 0.367357
0.396104 0.775107 0.365871
0.534260 0.777288 0.364525
0.671356 0.779484 0.363205
0.800286 0.781583 0.361801
0.913940 0.783473 0.360200
1.000000 0.785055 0.358302
0.058770 0.888051 0.365221
0.159255 0.889646 0.363297
0.279467 0.891578 0.361727
0.412303 0.893737 0.360400
0.550656 0.896009 0.359203
0.687416 0.898284 0.358023
0.815472 0.900449 0.356751
0.927711 0.902392 0.355272
1.000000 0.904024 0.353497
0.070371 0.985682 0.358676
0.172602 0.987370 0.356924
0.294034 0.989382 0.355518
0.427560 0.991605 0.354345
0.566069 0.993929 0.353294
0.702447 0.996241 0.352251
0.829579 0.998428 0.351106
0.940346 1.000000 0.349746
1.000000 1.000000 0.348093
0.000000 0.011553 0.547127
0.062451 0.012457 0.544051
0.173498 0.013719 0.541345
0.300691 0.015259 0.538930
0.436953 0.016964 0.536692
0.575201 0.018723 0.534521
0.708352 0.020425 0.532306
0.829320 0.021957 0.529935
0.931017 0.023207 0.527298
0.000000 0.110475 0.537387
0.074604 0.111365 0.534443
0.187048 0.112623 0.531873
0.315142 0.114154 0.529587
0.451803 0.115849 0.527472
0.589947 0.117596 0.525418
0.722486 0.119282 0.523312
0.842329 0.120797 0.521044
0.942385 0.122027 0.518502
0.000000 0.229141 0.529045
0.087950 0.230083 0.526241
0.201770 0.231397 0.523814
0.330739 0.232982 0.521663
0.467771 0.234725 0.519677
0.605776 0.236516 0.517744
0.737663 0.238243 0.515753
0.856336 0.239794 0.513592
0.954701 0.241057 0.511150
0.008401 0.361097 0.521783
0.102158 0.362141 0.519127
0.217332 0.363557 0.516847
0.347150 0.365238 0.514836
0.484521 0.367072 0.512983
0.622350 0.368948 0.511175
0.753543 0.370754 0.509302
0.871001 0.372378 0.507252
0.967631 0.373709 0.504913
0.021530 0.499775 0.515275
0.116893 0.500954 0.512773
0.233398 0.502501 0.510644
0.364036 0.504306 0.508776
0.501711 0.506257 0.507059
0.639327 0.508241 0.505380
0.769782 0.510149 0.503627
0.885976 0.511867 0.501690
0.980936 0.513286 0.499459
0.034715 0.638498 0.509188
0.131812 0.639827 0.506845
0.249623 0.641517 0.504869
0.381050 0.643455 0.503147
0.518995 0.645531 0.501567
0.656356 0.647631 0.500018
0.786029 0.649645 0.498387
0.900908 0.651460 0.496564
0.994302 0.652971 0.494443
0.047678 0.770469 0.503183
0.146569 0.771947 0.501002
0.265657 0.773774 0.499180
0.397841 0.775840 0.497604
0.536018 0.778031 0.496162
0.673082 0.780237 0.494743
0.801926 0.782345 0.493235
0.915438 0.784243 0.491526
1.000000 0.785833 0.489517
0.060148 0.888781 0.496914
0.160809 0.890387 0.494896
0.281145 0.892330 0.493227
0.414052 0.894498 0.491797
0.552421 0.896780 0.490493
0.689145 0.899062 0.489203
0.817110 0.901234 0.487816
0.929202 0.903184 0.486219
1.000000 0.904822 0.484324
0.071768 0.986433 0.490029
0.174173 0.988130 0.488172
0.295726 0.990150 0.486656
0.429319 0.992382 0.485370
0.567841 0.994712 0.484202
0.704178 0.997030 0.483040
0.831213 0.999223 0.481771
0.941828 1.000000 0.480284
1.000000 1.000000 0.478503
0.000000 0.012091 0.675895
0.063858 0.013005 0.673066
0.175048 0.014279 0.670600
0.302335 0.015829 0.668413
0.438640 0.017544 0.666395
0.576881 0.019312 0.664435
0.709973 0.021021 0.662421
0.830831 0.022560 0.660242
0.932366 0.023816 0.657788
0.000000 0.111006 0.666944
0.076032 0.111908 0.664218
0.188617 0.113178 0.661858
0.316802 0.114722 0.659772
0.453503 0.116429 0.657849
0.591636 0.118185 0.655977
0.724112 0.119881 0.654046
0.843841 0.121404 0.651943
0.943729 0.122642 0.649559
0.000000 0.229685 0.659294
0.089400 0.230641 0.656681
0.203359 0.231969 0.654436
0.332416 0.233567 0.652459
0.469485 0.235323 0.650638
0.607475 0.237125 0.648862
0.739294 0.238863 0.647020
0.857848 0.240423 0.645001
0.956040 0.241694 0.642692
0.009717 0.361670 0.652633
0.103631 0.362729 0.650142
0.218941 0.364160 0.648019
0.348844 0.365855 0.646157
0.486248 0.367702 0.644445
0.624058 0.369590 0.642771
0.755179 0.371407 0.641024
0.872512 0.373042 0.639092
0.968970 0.374382 0.636865
0.022855 0.500389 0.646642
0.118388 0.501583 0.644281
0.235027 0.503144 0.642285
0.365746 0.504963 0.640543
0.503451 0.506927 0.638944
0.641043 0.508924 0.637377
0.771422 0.510842 0.635729
0.887486 0.512571 0.633890
0.982284 0.513999 0.631749
0.036051 0.639155 0.640993
0.133330 0.640499 0.638769
0.251271 0.642203 0.636905
0.382777 0.644155 0.635287
0.520747 0.646243 0.633805
0.658081 0.648355 0.632347
0.787673 0.650380 0.630802
0.902417 0.652205 0.629057
0.995659 0.653725 0.627008
0.049037 0.771170 0.635353
0.148109 0.772662 0.633271
0.267325 0.774502 0.631541
0.399584 0.776580 0.630050
0.537782 0.778783 0.628687
0.674814 0.780999 0.627341
0.803572 0.783117 0.625899
0.916944 0.785023 0.624251
1.000000 0.786622 0.622298
0.061531 0.889518 0.629383
0.162370 0.891136 0.627444
0.282831 0.893091 0.625849
0.415809 0.895269 0.624486
0.554196 0.897561 0.623243
0.690883 0.899852 0.622009
0.818757 0.902033 0.620672
0.930702 0.903989 0.619120
1.000000 0.905634 0.617266
0.073175 0.987193 0.622735
0.175754 0.988901 0.620939
0.297429 0.990931 0.619480
0.431090 0.993171 0.618245
0.569625 0.995509 0.617123
0.705920 0.997833 0.616001
0.832859 1.000000 0.614767
0.943323 1.000000 0.613311
1.000000 1.000000 0.611557
0.000000 0.012577 0.794497
0.065212 0.013503 0.792129
0.176547 0.014789 0.790112
0.303929 0.016351 0.788364
0.440278 0.018076 0.786773
0.578512 0.019853 0.785229
0.711547 0.021571 0.783620
0.832295 0.023118 0.781836
0.933669 0.024382 0.779765
0.000000 0.111488 0.787044
0.077412 0.112405 0.784743
0.190139 0.113689 0.782798
0.318415 0.115246 0.781116
0.455158 0.116964 0.779586
0.593280 0.118732 0.778097
0.725694 0.120438 0.776538
0.845308 0.121971 0.774797
0.945030 0.123218 0.772765
0.000000 0.230185 0.780775
0.090805 0.231157 0.778553
0.204904 0.232500 0.776690
0.334050 0.234112 0.775084
0.471156 0.235881 0.773625
0.609132 0.237696 0.772200
0.740884 0.239445 0.770699
0.859319 0.241016 0.769012
0.957339 0.242297 0.767025
0.010989 0.362204 0.775385
0.105062 0.363279 0.773254
0.220510 0.364725 0.771481
0.350499 0.366435 0.769959
0.487936 0.368296 0.768578
0.625728 0.370197 0.767226
0.756778 0.372027 0.765791
0.873987 0.373672 0.764163
0.970274 0.375023 0.762230
0.024141 0.500966 0.770559
0.119846 0.502176 0.768529
0.236619 0.503753 0.766854
0.367421 0.505587 0.765424
0.505156 0.507564 0.764128
0.642725 0.509575 0.762854
0.773029 0.511505 0.761491
0.888963 0.513245 0.759928
0.983600 0.514684 0.758056
0.037351 0.639780 0.765978
0.134814 0.641140 0.764057
0.252887 0.642859 0.762486
0.384471 0.644825 0.761153
0.522468 0.646927 0.759947
0.659774 0.649051 0.758756
0.789285 0.651088 0.757470
0.903894 0.652923 0.755977
0.996987 0.654454 0.754172
0.050366 0.771840 0.761314
0.149618 0.773347 0.759508
0.268962 0.775202 0.758045
0.401297 0.777293 0.756813
0.539518 0.779508 0.755701
0.676518 0.781736 0.754598
0.805190 0.783864 0.753392
0.918422 0.785781 0.751971
1.000000 0.787389 0.750240
0.062886 0.890227 0.756233
0.163903 0.891859 0.754545
0.284490 0.893826 0.753192
0.417540 0.896016 0.752065
0.555945 0.898318 0.751050
0.692596 0.900620 0.750036
0.820379 0.902809 0.748912
0.932179 0.904773 0.747566
1.000000 0.906427 0.745911
0.074556 0.987929 0.750391
0.177311 0.989648 0.748823
0.299108 0.991688 0.747585
0.432837 0.993937 0.746563
0.571386 0.996284 0.745646
0.707641 0.998616 0.744723
0.834484 1.000000 0.743682
0.944796 1.000000 0.742411
1.000000 1.000000 0.740837
0.000000 0.012975 0.896580
0.066480 0.013915 0.894883
0.177960 0.015215 0.893525
0.305438 0.016789 0.892423
0.441832 0.018526 0.891465
0.580060 0.020314 0.890540
0.713038 0.022042 0.889539
0.833678 0.023597 0.888349
0.934890 0.024869 0.886861
0.000000 0.111888 0.891327
0.078709 0.112820 0.889655
0.191579 0.114119 0.888328
0.319948 0.115690 0.887252
0.456733 0.117422 0.886315
0.594845 0.119202 0.885407
0.727198 0.120920 0.884416
0.846698 0.122463 0.883233
0.946253 0.123720 0.881745
0.000000 0.230607 0.887122
0.092132 0.231596 0.885490
0.206371 0.232955 0.884206
0.335607 0.234582 0.883167
0.472751 0.236365 0.882263
0.610713 0.238194 0.881382
0.742400 0.239955 0.880413
0.860716 0.241538 0.879245
0.958564 0.242830 0.877768
0.012184 0.362663 0.883665
0.106419 0.363755 0.882087
0.222005 0.365218 0.880856
0.352080 0.366944 0.879865
0.489551 0.368820 0.879003
0.627325 0.370735 0.878158
0.758304 0.372578 0.877221
0.875390 0.374236 0.876078
0.971508 0.375598 0.874621
0.025353 0.501472 0.880649
0.121232 0.502700 0.879136
0.238141 0.504294 0.877968
0.369026 0.506143 0.877033
0.506791 0.508135 0.876222
0.644338 0.510160 0.875422
0.774566 0.512104 0.874523
0.890371 0.513856 0.873413
0.984850 0.515307 0.871985
0.038582 0.640337 0.877759
0.136230 0.641714 0.876322
0.254434 0.643449 0.875223
0.386098 0.645431 0.874353
0.524122 0.647547 0.873599
0.661402 0.649685 0.872851
0.790833 0.651734 0.871997
0.905307 0.653581 0.870926
0.998252 0.655123 0.869535
0.051628 0.772447 0.874675
0.151062 0.773969 0.873320
0.270535 0.775839 0.872297
0.402946 0.777945 0.871497
0.541190 0.780173 0.870807
0.678159 0.782413 0.870115
0.806746 0.784553 0.869311
0.919838 0.786480 0.868283
1.000000 0.788098 0.866936
0.064179 0.890875 0.871065
0.165375 0.892521 0.869798
0.286087 0.894501 0.868857
0.419210 0.896704 0.868130
0.557634 0.899018 0.867508
0.694249 0.901330 0.866877
0.821941 0.903529 0.866127
0.933596 0.905502 0.865145
1.000000 0.907164 0.863848
0.075878 0.988606 0.866594
0.178809 0.990336 0.865418
0.300729 0.992388 0.864562
0.434527 0.994647 0.863913
0.573090 0.997003 0.863361
0.709304 0.999344 0.862794
0.836051 1.000000 0.862100
0.946212 1.000000 0.861167
1.000000 1.000000 0.859925
0.000000 0.013276 0.979926
0.067647 0.014227 0.978615
0.179272 0.015539 0.977666
0.306843 0.017124 0.976993
0.443281 0.018872 0.976483
0.581502 0.020670 0.976025
0.714422 0.022407 0.975509
0.834952 0.023971 0.974821
0.936002 0.025251 0.973851
0.000000 0.112186 0.976050
0.079902 0.113132 0.974836
0.192914 0.114445 0.973985
0.321375 0.116030 0.973403
0.458200 0.117774 0.972976
0.596302 0.119567 0.972594
0.728592 0.121296 0.972146
0.847979 0.122849 0.971518
0.947367 0.124116 0.970600
0.000483 0.230925 0.973449
0.093353 0.231929 0.972337
0.207732 0.233304 0.971587
0.337057 0.234946 0.971098
0.474239 0.236744 0.970758
0.612186 0.238586 0.970454
0.743807 0.240361 0.970075
0.862004 0.241956 0.969509
0.959680 0.243259 0.968645
0.013270 0.363018 0.971793
0.107669 0.364127 0.970786
0.223393 0.365607 0.970140
0.353554 0.367349 0.969746
0.491060 0.369240 0.969493
0.628816 0.371170 0.969268
0.759725 0.373026 0.968960
0.876687 0.374698 0.968458
0.972639 0.376072 0.967649
0.026457 0.501874 0.970744
0.122513 0.503120 0.969847
0.239557 0.504731 0.969305
0.370525 0.506597 0.969007
0.508322 0.508605 0.968842
0.645847 0.510645 0.968693
0.776000 0.512603 0.968434
0.891677 0.514368 0.967953
0.986000 0.515832 0.967141
0.039710 0.640792 0.969961
0.137542 0.642187 0.969175
0.255880 0.643940 0.968728
0.387624 0.645937 0.968496
0.525675 0.648069 0.968369
0.662929 0.650221 0.968236
0.792280 0.652284 0.967985
0.906621 0.654143 0.967505
0.999419 0.655698 0.966695
0.052790 0.772954 0.969042
0.152406 0.774494 0.968312
0.272009 0.776380 0.967903
0.404497 0.778500 0.967704
0.542764 0.780743 0.967604
0.679703 0.782996 0.967491
0.808204 0.785148 0.967254
0.921157 0.787086 0.966782
1.000000 0.788716 0.965981
0.065374 0.891427 0.967482
0.166750 0.893088 0.966803
0.287589 0.895082 0.966439
0.420784 0.897298 0.966279
0.559227 0.899624 0.966211
0.695807 0.901948 0.966124
0.823410 0.904157 0.965907
0.934919 0.906140 0.965448
1.000000 0.907813 0.964664
0.077105 0.989188 0.964940
0.180213 0.990932 0.964317
0.302256 0.992995 0.964003
0.436123 0.995266 0.963887
0.574701 0.997632 0.963856
0.710875 0.999982 0.963799
0.837527 1.000000 0.963605
0.947538 1.000000 0.963162
1.000000 1.000000 0.962401
